; FLAVOR:RepRap
; MINX:10
; MINY:10
; MINZ:0
; MAXX:50
; MAXY:50
; MAXZ:20
; Generated by Medical AI Zirconia Optimizer (Z.ai)
M104 S210 ; Set nozzle temp
M140 S60  ; Set bed temp
G28 ; Home all axes
G1 Z5 F5000 ; Lift nozzle
M109 S210 ; Wait for nozzle temp
G92 E0 ; Reset extruder
G1 F200 E3 ; Prime extruder
G92 E0
; AI-Driven Adaptive Slicing - Variable Layer Heights
G1 Z0.30 F1200 ; Adaptive Layer Height: 0.3mm
G1 X44.94 Y30.00 E0.075 F1500
G1 X44.04 Y35.11 E0.150 F1500
G1 X41.44 Y39.60 E0.225 F1500
G1 X37.47 Y42.94 E0.300 F1500
G1 X32.59 Y44.71 E0.375 F1500
G1 X27.41 Y44.71 E0.450 F1500
G1 X22.53 Y42.94 E0.525 F1500
G1 X18.56 Y39.60 E0.600 F1500
G1 X15.96 Y35.11 E0.675 F1500
G1 X15.06 Y30.00 E0.750 F1500
G1 X15.96 Y24.89 E0.825 F1500
G1 X18.56 Y20.40 E0.900 F1500
G1 X22.53 Y17.06 E0.975 F1500
G1 X27.41 Y15.29 E1.050 F1500
G1 X32.59 Y15.29 E1.125 F1500
G1 X37.47 Y17.06 E1.200 F1500
G1 X41.44 Y20.40 E1.275 F1500
G1 X44.04 Y24.89 E1.350 F1500
G1 Z0.60 F1200 ; Adaptive Layer Height: 0.3mm
G1 X44.88 Y30.00 E1.425 F1500
G1 X43.98 Y35.09 E1.500 F1500
G1 X41.40 Y39.56 E1.575 F1500
G1 X37.44 Y42.89 E1.650 F1500
G1 X32.58 Y44.65 E1.725 F1500
G1 X27.42 Y44.65 E1.800 F1500
G1 X22.56 Y42.89 E1.875 F1500
G1 X18.60 Y39.56 E1.950 F1500
G1 X16.02 Y35.09 E2.025 F1500
G1 X15.12 Y30.00 E2.100 F1500
G1 X16.02 Y24.91 E2.175 F1500
G1 X18.60 Y20.44 E2.250 F1500
G1 X22.56 Y17.11 E2.325 F1500
G1 X27.42 Y15.35 E2.400 F1500
G1 X32.58 Y15.35 E2.475 F1500
G1 X37.44 Y17.11 E2.550 F1500
G1 X41.40 Y20.44 E2.625 F1500
G1 X43.98 Y24.91 E2.700 F1500
G1 Z0.90 F1200 ; Adaptive Layer Height: 0.3mm
G1 X44.82 Y30.00 E2.775 F1500
G1 X43.93 Y35.07 E2.850 F1500
G1 X41.35 Y39.53 E2.925 F1500
G1 X37.41 Y42.83 E3.000 F1500
G1 X32.57 Y44.59 E3.075 F1500
G1 X27.43 Y44.59 E3.150 F1500
G1 X22.59 Y42.83 E3.225 F1500
G1 X18.65 Y39.53 E3.300 F1500
G1 X16.07 Y35.07 E3.375 F1500
G1 X15.18 Y30.00 E3.450 F1500
G1 X16.07 Y24.93 E3.525 F1500
G1 X18.65 Y20.47 E3.600 F1500
G1 X22.59 Y17.17 E3.675 F1500
G1 X27.43 Y15.41 E3.750 F1500
G1 X32.57 Y15.41 E3.825 F1500
G1 X37.41 Y17.17 E3.900 F1500
G1 X41.35 Y20.47 E3.975 F1500
G1 X43.93 Y24.93 E4.050 F1500
G1 Z1.20 F1200 ; Adaptive Layer Height: 0.3mm
G1 X44.76 Y30.00 E4.125 F1500
G1 X43.87 Y35.05 E4.200 F1500
G1 X41.31 Y39.49 E4.275 F1500
G1 X37.38 Y42.78 E4.350 F1500
G1 X32.56 Y44.54 E4.425 F1500
G1 X27.44 Y44.54 E4.500 F1500
G1 X22.62 Y42.78 E4.575 F1500
G1 X18.69 Y39.49 E4.650 F1500
G1 X16.13 Y35.05 E4.725 F1500
G1 X15.24 Y30.00 E4.800 F1500
G1 X16.13 Y24.95 E4.875 F1500
G1 X18.69 Y20.51 E4.950 F1500
G1 X22.62 Y17.22 E5.025 F1500
G1 X27.44 Y15.46 E5.100 F1500
G1 X32.56 Y15.46 E5.175 F1500
G1 X37.38 Y17.22 E5.250 F1500
G1 X41.31 Y20.51 E5.325 F1500
G1 X43.87 Y24.95 E5.400 F1500
G1 Z1.50 F1200 ; Adaptive Layer Height: 0.3mm
G1 X44.70 Y30.00 E5.475 F1500
G1 X43.81 Y35.03 E5.550 F1500
G1 X41.26 Y39.45 E5.625 F1500
G1 X37.35 Y42.73 E5.700 F1500
G1 X32.55 Y44.48 E5.775 F1500
G1 X27.45 Y44.48 E5.850 F1500
G1 X22.65 Y42.73 E5.925 F1500
G1 X18.74 Y39.45 E6.000 F1500
G1 X16.19 Y35.03 E6.075 F1500
G1 X15.30 Y30.00 E6.150 F1500
G1 X16.19 Y24.97 E6.225 F1500
G1 X18.74 Y20.55 E6.300 F1500
G1 X22.65 Y17.27 E6.375 F1500
G1 X27.45 Y15.52 E6.450 F1500
G1 X32.55 Y15.52 E6.525 F1500
G1 X37.35 Y17.27 E6.600 F1500
G1 X41.26 Y20.55 E6.675 F1500
G1 X43.81 Y24.97 E6.750 F1500
G1 Z1.80 F1200 ; Adaptive Layer Height: 0.3mm
G1 X44.64 Y30.00 E6.825 F1500
G1 X43.76 Y35.01 E6.900 F1500
G1 X41.21 Y39.41 E6.975 F1500
G1 X37.32 Y42.68 E7.050 F1500
G1 X32.54 Y44.42 E7.125 F1500
G1 X27.46 Y44.42 E7.200 F1500
G1 X22.68 Y42.68 E7.275 F1500
G1 X18.79 Y39.41 E7.350 F1500
G1 X16.24 Y35.01 E7.425 F1500
G1 X15.36 Y30.00 E7.500 F1500
G1 X16.24 Y24.99 E7.575 F1500
G1 X18.79 Y20.59 E7.650 F1500
G1 X22.68 Y17.32 E7.725 F1500
G1 X27.46 Y15.58 E7.800 F1500
G1 X32.54 Y15.58 E7.875 F1500
G1 X37.32 Y17.32 E7.950 F1500
G1 X41.21 Y20.59 E8.025 F1500
G1 X43.76 Y24.99 E8.100 F1500
G1 Z2.10 F1200 ; Adaptive Layer Height: 0.3mm
G1 X44.58 Y30.00 E8.175 F1500
G1 X43.70 Y34.99 E8.250 F1500
G1 X41.17 Y39.37 E8.325 F1500
G1 X37.29 Y42.63 E8.400 F1500
G1 X32.53 Y44.36 E8.475 F1500
G1 X27.47 Y44.36 E8.550 F1500
G1 X22.71 Y42.63 E8.625 F1500
G1 X18.83 Y39.37 E8.700 F1500
G1 X16.30 Y34.99 E8.775 F1500
G1 X15.42 Y30.00 E8.850 F1500
G1 X16.30 Y25.01 E8.925 F1500
G1 X18.83 Y20.63 E9.000 F1500
G1 X22.71 Y17.37 E9.075 F1500
G1 X27.47 Y15.64 E9.150 F1500
G1 X32.53 Y15.64 E9.225 F1500
G1 X37.29 Y17.37 E9.300 F1500
G1 X41.17 Y20.63 E9.375 F1500
G1 X43.70 Y25.01 E9.450 F1500
G1 Z2.40 F1200 ; Adaptive Layer Height: 0.3mm
G1 X44.52 Y30.00 E9.525 F1500
G1 X43.64 Y34.97 E9.600 F1500
G1 X41.12 Y39.33 E9.675 F1500
G1 X37.26 Y42.57 E9.750 F1500
G1 X32.52 Y44.30 E9.825 F1500
G1 X27.48 Y44.30 E9.900 F1500
G1 X22.74 Y42.57 E9.975 F1500
G1 X18.88 Y39.33 E10.050 F1500
G1 X16.36 Y34.97 E10.125 F1500
G1 X15.48 Y30.00 E10.200 F1500
G1 X16.36 Y25.03 E10.275 F1500
G1 X18.88 Y20.67 E10.350 F1500
G1 X22.74 Y17.43 E10.425 F1500
G1 X27.48 Y15.70 E10.500 F1500
G1 X32.52 Y15.70 E10.575 F1500
G1 X37.26 Y17.43 E10.650 F1500
G1 X41.12 Y20.67 E10.725 F1500
G1 X43.64 Y25.03 E10.800 F1500
G1 Z2.70 F1200 ; Adaptive Layer Height: 0.3mm
G1 X44.46 Y30.00 E10.875 F1500
G1 X43.59 Y34.95 E10.950 F1500
G1 X41.08 Y39.29 E11.025 F1500
G1 X37.23 Y42.52 E11.100 F1500
G1 X32.51 Y44.24 E11.175 F1500
G1 X27.49 Y44.24 E11.250 F1500
G1 X22.77 Y42.52 E11.325 F1500
G1 X18.92 Y39.29 E11.400 F1500
G1 X16.41 Y34.95 E11.475 F1500
G1 X15.54 Y30.00 E11.550 F1500
G1 X16.41 Y25.05 E11.625 F1500
G1 X18.92 Y20.71 E11.700 F1500
G1 X22.77 Y17.48 E11.775 F1500
G1 X27.49 Y15.76 E11.850 F1500
G1 X32.51 Y15.76 E11.925 F1500
G1 X37.23 Y17.48 E12.000 F1500
G1 X41.08 Y20.71 E12.075 F1500
G1 X43.59 Y25.05 E12.150 F1500
G1 Z3.00 F1200 ; Adaptive Layer Height: 0.3mm
G1 X44.40 Y30.00 E12.225 F1500
G1 X43.53 Y34.93 E12.300 F1500
G1 X41.03 Y39.26 E12.375 F1500
G1 X37.20 Y42.47 E12.450 F1500
G1 X32.50 Y44.18 E12.525 F1500
G1 X27.50 Y44.18 E12.600 F1500
G1 X22.80 Y42.47 E12.675 F1500
G1 X18.97 Y39.26 E12.750 F1500
G1 X16.47 Y34.93 E12.825 F1500
G1 X15.60 Y30.00 E12.900 F1500
G1 X16.47 Y25.07 E12.975 F1500
G1 X18.97 Y20.74 E13.050 F1500
G1 X22.80 Y17.53 E13.125 F1500
G1 X27.50 Y15.82 E13.200 F1500
G1 X32.50 Y15.82 E13.275 F1500
G1 X37.20 Y17.53 E13.350 F1500
G1 X41.03 Y20.74 E13.425 F1500
G1 X43.53 Y25.07 E13.500 F1500
G1 Z3.30 F1200 ; Adaptive Layer Height: 0.3mm
G1 X44.34 Y30.00 E13.575 F1500
G1 X43.48 Y34.90 E13.650 F1500
G1 X40.99 Y39.22 E13.725 F1500
G1 X37.17 Y42.42 E13.800 F1500
G1 X32.49 Y44.12 E13.875 F1500
G1 X27.51 Y44.12 E13.950 F1500
G1 X22.83 Y42.42 E14.025 F1500
G1 X19.01 Y39.22 E14.100 F1500
G1 X16.52 Y34.90 E14.175 F1500
G1 X15.66 Y30.00 E14.250 F1500
G1 X16.52 Y25.10 E14.325 F1500
G1 X19.01 Y20.78 E14.400 F1500
G1 X22.83 Y17.58 E14.475 F1500
G1 X27.51 Y15.88 E14.550 F1500
G1 X32.49 Y15.88 E14.625 F1500
G1 X37.17 Y17.58 E14.700 F1500
G1 X40.99 Y20.78 E14.775 F1500
G1 X43.48 Y25.10 E14.850 F1500
G1 Z3.60 F1200 ; Adaptive Layer Height: 0.3mm
G1 X44.28 Y30.00 E14.925 F1500
G1 X43.42 Y34.88 E15.000 F1500
G1 X40.94 Y39.18 E15.075 F1500
G1 X37.14 Y42.37 E15.150 F1500
G1 X32.48 Y44.06 E15.225 F1500
G1 X27.52 Y44.06 E15.300 F1500
G1 X22.86 Y42.37 E15.375 F1500
G1 X19.06 Y39.18 E15.450 F1500
G1 X16.58 Y34.88 E15.525 F1500
G1 X15.72 Y30.00 E15.600 F1500
G1 X16.58 Y25.12 E15.675 F1500
G1 X19.06 Y20.82 E15.750 F1500
G1 X22.86 Y17.63 E15.825 F1500
G1 X27.52 Y15.94 E15.900 F1500
G1 X32.48 Y15.94 E15.975 F1500
G1 X37.14 Y17.63 E16.050 F1500
G1 X40.94 Y20.82 E16.125 F1500
G1 X43.42 Y25.12 E16.200 F1500
G1 Z3.90 F1200 ; Adaptive Layer Height: 0.3mm
G1 X44.22 Y30.00 E16.275 F1500
G1 X43.36 Y34.86 E16.350 F1500
G1 X40.89 Y39.14 E16.425 F1500
G1 X37.11 Y42.31 E16.500 F1500
G1 X32.47 Y44.00 E16.575 F1500
G1 X27.53 Y44.00 E16.650 F1500
G1 X22.89 Y42.31 E16.725 F1500
G1 X19.11 Y39.14 E16.800 F1500
G1 X16.64 Y34.86 E16.875 F1500
G1 X15.78 Y30.00 E16.950 F1500
G1 X16.64 Y25.14 E17.025 F1500
G1 X19.11 Y20.86 E17.100 F1500
G1 X22.89 Y17.69 E17.175 F1500
G1 X27.53 Y16.00 E17.250 F1500
G1 X32.47 Y16.00 E17.325 F1500
G1 X37.11 Y17.69 E17.400 F1500
G1 X40.89 Y20.86 E17.475 F1500
G1 X43.36 Y25.14 E17.550 F1500
G1 Z4.20 F1200 ; Adaptive Layer Height: 0.3mm
G1 X44.16 Y30.00 E17.625 F1500
G1 X43.31 Y34.84 E17.700 F1500
G1 X40.85 Y39.10 E17.775 F1500
G1 X37.08 Y42.26 E17.850 F1500
G1 X32.46 Y43.94 E17.925 F1500
G1 X27.54 Y43.94 E18.000 F1500
G1 X22.92 Y42.26 E18.075 F1500
G1 X19.15 Y39.10 E18.150 F1500
G1 X16.69 Y34.84 E18.225 F1500
G1 X15.84 Y30.00 E18.300 F1500
G1 X16.69 Y25.16 E18.375 F1500
G1 X19.15 Y20.90 E18.450 F1500
G1 X22.92 Y17.74 E18.525 F1500
G1 X27.54 Y16.06 E18.600 F1500
G1 X32.46 Y16.06 E18.675 F1500
G1 X37.08 Y17.74 E18.750 F1500
G1 X40.85 Y20.90 E18.825 F1500
G1 X43.31 Y25.16 E18.900 F1500
G1 Z4.50 F1200 ; Adaptive Layer Height: 0.3mm
G1 X44.10 Y30.00 E18.975 F1500
G1 X43.25 Y34.82 E19.050 F1500
G1 X40.80 Y39.06 E19.125 F1500
G1 X37.05 Y42.21 E19.200 F1500
G1 X32.45 Y43.89 E19.275 F1500
G1 X27.55 Y43.89 E19.350 F1500
G1 X22.95 Y42.21 E19.425 F1500
G1 X19.20 Y39.06 E19.500 F1500
G1 X16.75 Y34.82 E19.575 F1500
G1 X15.90 Y30.00 E19.650 F1500
G1 X16.75 Y25.18 E19.725 F1500
G1 X19.20 Y20.94 E19.800 F1500
G1 X22.95 Y17.79 E19.875 F1500
G1 X27.55 Y16.11 E19.950 F1500
G1 X32.45 Y16.11 E20.025 F1500
G1 X37.05 Y17.79 E20.100 F1500
G1 X40.80 Y20.94 E20.175 F1500
G1 X43.25 Y25.18 E20.250 F1500
G1 Z4.80 F1200 ; Adaptive Layer Height: 0.3mm
G1 X44.04 Y30.00 E20.325 F1500
G1 X43.19 Y34.80 E20.400 F1500
G1 X40.76 Y39.02 E20.475 F1500
G1 X37.02 Y42.16 E20.550 F1500
G1 X32.44 Y43.83 E20.625 F1500
G1 X27.56 Y43.83 E20.700 F1500
G1 X22.98 Y42.16 E20.775 F1500
G1 X19.24 Y39.02 E20.850 F1500
G1 X16.81 Y34.80 E20.925 F1500
G1 X15.96 Y30.00 E21.000 F1500
G1 X16.81 Y25.20 E21.075 F1500
G1 X19.24 Y20.98 E21.150 F1500
G1 X22.98 Y17.84 E21.225 F1500
G1 X27.56 Y16.17 E21.300 F1500
G1 X32.44 Y16.17 E21.375 F1500
G1 X37.02 Y17.84 E21.450 F1500
G1 X40.76 Y20.98 E21.525 F1500
G1 X43.19 Y25.20 E21.600 F1500
G1 Z5.10 F1200 ; Adaptive Layer Height: 0.3mm
G1 X43.98 Y30.00 E21.675 F1500
G1 X43.14 Y34.78 E21.750 F1500
G1 X40.71 Y38.99 E21.825 F1500
G1 X36.99 Y42.11 E21.900 F1500
G1 X32.43 Y43.77 E21.975 F1500
G1 X27.57 Y43.77 E22.050 F1500
G1 X23.01 Y42.11 E22.125 F1500
G1 X19.29 Y38.99 E22.200 F1500
G1 X16.86 Y34.78 E22.275 F1500
G1 X16.02 Y30.00 E22.350 F1500
G1 X16.86 Y25.22 E22.425 F1500
G1 X19.29 Y21.01 E22.500 F1500
G1 X23.01 Y17.89 E22.575 F1500
G1 X27.57 Y16.23 E22.650 F1500
G1 X32.43 Y16.23 E22.725 F1500
G1 X36.99 Y17.89 E22.800 F1500
G1 X40.71 Y21.01 E22.875 F1500
G1 X43.14 Y25.22 E22.950 F1500
G1 Z5.40 F1200 ; Adaptive Layer Height: 0.3mm
G1 X43.92 Y30.00 E23.025 F1500
G1 X43.08 Y34.76 E23.100 F1500
G1 X40.66 Y38.95 E23.175 F1500
G1 X36.96 Y42.06 E23.250 F1500
G1 X32.42 Y43.71 E23.325 F1500
G1 X27.58 Y43.71 E23.400 F1500
G1 X23.04 Y42.06 E23.475 F1500
G1 X19.34 Y38.95 E23.550 F1500
G1 X16.92 Y34.76 E23.625 F1500
G1 X16.08 Y30.00 E23.700 F1500
G1 X16.92 Y25.24 E23.775 F1500
G1 X19.34 Y21.05 E23.850 F1500
G1 X23.04 Y17.94 E23.925 F1500
G1 X27.58 Y16.29 E24.000 F1500
G1 X32.42 Y16.29 E24.075 F1500
G1 X36.96 Y17.94 E24.150 F1500
G1 X40.66 Y21.05 E24.225 F1500
G1 X43.08 Y25.24 E24.300 F1500
G1 Z5.70 F1200 ; Adaptive Layer Height: 0.3mm
G1 X43.86 Y30.00 E24.375 F1500
G1 X43.02 Y34.74 E24.450 F1500
G1 X40.62 Y38.91 E24.525 F1500
G1 X36.93 Y42.00 E24.600 F1500
G1 X32.41 Y43.65 E24.675 F1500
G1 X27.59 Y43.65 E24.750 F1500
G1 X23.07 Y42.00 E24.825 F1500
G1 X19.38 Y38.91 E24.900 F1500
G1 X16.98 Y34.74 E24.975 F1500
G1 X16.14 Y30.00 E25.050 F1500
G1 X16.98 Y25.26 E25.125 F1500
G1 X19.38 Y21.09 E25.200 F1500
G1 X23.07 Y18.00 E25.275 F1500
G1 X27.59 Y16.35 E25.350 F1500
G1 X32.41 Y16.35 E25.425 F1500
G1 X36.93 Y18.00 E25.500 F1500
G1 X40.62 Y21.09 E25.575 F1500
G1 X43.02 Y25.26 E25.650 F1500
G1 Z6.00 F1200 ; Adaptive Layer Height: 0.3mm
G1 X43.80 Y30.00 E25.725 F1500
G1 X42.97 Y34.72 E25.800 F1500
G1 X40.57 Y38.87 E25.875 F1500
G1 X36.90 Y41.95 E25.950 F1500
G1 X32.40 Y43.59 E26.025 F1500
G1 X27.60 Y43.59 E26.100 F1500
G1 X23.10 Y41.95 E26.175 F1500
G1 X19.43 Y38.87 E26.250 F1500
G1 X17.03 Y34.72 E26.325 F1500
G1 X16.20 Y30.00 E26.400 F1500
G1 X17.03 Y25.28 E26.475 F1500
G1 X19.43 Y21.13 E26.550 F1500
G1 X23.10 Y18.05 E26.625 F1500
G1 X27.60 Y16.41 E26.700 F1500
G1 X32.40 Y16.41 E26.775 F1500
G1 X36.90 Y18.05 E26.850 F1500
G1 X40.57 Y21.13 E26.925 F1500
G1 X42.97 Y25.28 E27.000 F1500
G1 Z6.05 F1200 ; Adaptive Layer Height: 0.05mm
G1 X43.79 Y30.00 E27.012 F1500
G1 X42.96 Y34.72 E27.025 F1500
G1 X40.56 Y38.86 E27.037 F1500
G1 X36.90 Y41.94 E27.050 F1500
G1 X32.39 Y43.58 E27.062 F1500
G1 X27.61 Y43.58 E27.075 F1500
G1 X23.11 Y41.94 E27.087 F1500
G1 X19.44 Y38.86 E27.100 F1500
G1 X17.04 Y34.72 E27.112 F1500
G1 X16.21 Y30.00 E27.125 F1500
G1 X17.04 Y25.28 E27.137 F1500
G1 X19.44 Y21.14 E27.150 F1500
G1 X23.10 Y18.06 E27.162 F1500
G1 X27.61 Y16.42 E27.175 F1500
G1 X32.39 Y16.42 E27.187 F1500
G1 X36.90 Y18.06 E27.200 F1500
G1 X40.56 Y21.14 E27.212 F1500
G1 X42.96 Y25.28 E27.225 F1500
G1 Z6.10 F1200 ; Adaptive Layer Height: 0.05mm
G1 X43.78 Y30.00 E27.237 F1500
G1 X42.95 Y34.71 E27.250 F1500
G1 X40.56 Y38.86 E27.262 F1500
G1 X36.89 Y41.93 E27.275 F1500
G1 X32.39 Y43.57 E27.287 F1500
G1 X27.61 Y43.57 E27.300 F1500
G1 X23.11 Y41.93 E27.312 F1500
G1 X19.44 Y38.86 E27.325 F1500
G1 X17.05 Y34.71 E27.337 F1500
G1 X16.22 Y30.00 E27.350 F1500
G1 X17.05 Y25.29 E27.362 F1500
G1 X19.44 Y21.14 E27.375 F1500
G1 X23.11 Y18.07 E27.387 F1500
G1 X27.61 Y16.43 E27.400 F1500
G1 X32.39 Y16.43 E27.412 F1500
G1 X36.89 Y18.07 E27.425 F1500
G1 X40.56 Y21.14 E27.437 F1500
G1 X42.95 Y25.29 E27.450 F1500
G1 Z6.15 F1200 ; Adaptive Layer Height: 0.05mm
G1 X43.77 Y30.00 E27.462 F1500
G1 X42.94 Y34.71 E27.475 F1500
G1 X40.55 Y38.85 E27.487 F1500
G1 X36.89 Y41.93 E27.500 F1500
G1 X32.39 Y43.56 E27.512 F1500
G1 X27.61 Y43.56 E27.525 F1500
G1 X23.12 Y41.93 E27.537 F1500
G1 X19.45 Y38.85 E27.550 F1500
G1 X17.06 Y34.71 E27.562 F1500
G1 X16.23 Y30.00 E27.575 F1500
G1 X17.06 Y25.29 E27.587 F1500
G1 X19.45 Y21.15 E27.600 F1500
G1 X23.11 Y18.07 E27.612 F1500
G1 X27.61 Y16.44 E27.625 F1500
G1 X32.39 Y16.44 E27.637 F1500
G1 X36.88 Y18.07 E27.650 F1500
G1 X40.55 Y21.15 E27.662 F1500
G1 X42.94 Y25.29 E27.675 F1500
G1 Z6.20 F1200 ; Adaptive Layer Height: 0.05mm
G1 X43.76 Y30.00 E27.687 F1500
G1 X42.93 Y34.71 E27.700 F1500
G1 X40.54 Y38.84 E27.712 F1500
G1 X36.88 Y41.92 E27.725 F1500
G1 X32.39 Y43.55 E27.737 F1500
G1 X27.61 Y43.55 E27.750 F1500
G1 X23.12 Y41.92 E27.762 F1500
G1 X19.46 Y38.84 E27.775 F1500
G1 X17.07 Y34.71 E27.787 F1500
G1 X16.24 Y30.00 E27.800 F1500
G1 X17.07 Y25.29 E27.812 F1500
G1 X19.46 Y21.16 E27.825 F1500
G1 X23.12 Y18.08 E27.837 F1500
G1 X27.61 Y16.45 E27.850 F1500
G1 X32.39 Y16.45 E27.862 F1500
G1 X36.88 Y18.08 E27.875 F1500
G1 X40.54 Y21.16 E27.887 F1500
G1 X42.93 Y25.29 E27.900 F1500
G1 Z6.25 F1200 ; Adaptive Layer Height: 0.05mm
G1 X43.75 Y30.00 E27.912 F1500
G1 X42.92 Y34.70 E27.925 F1500
G1 X40.53 Y38.84 E27.937 F1500
G1 X36.88 Y41.91 E27.950 F1500
G1 X32.39 Y43.54 E27.962 F1500
G1 X27.61 Y43.54 E27.975 F1500
G1 X23.13 Y41.91 E27.987 F1500
G1 X19.47 Y38.84 E28.000 F1500
G1 X17.08 Y34.70 E28.012 F1500
G1 X16.25 Y30.00 E28.025 F1500
G1 X17.08 Y25.30 E28.037 F1500
G1 X19.47 Y21.16 E28.050 F1500
G1 X23.12 Y18.09 E28.062 F1500
G1 X27.61 Y16.46 E28.075 F1500
G1 X32.39 Y16.46 E28.087 F1500
G1 X36.88 Y18.09 E28.100 F1500
G1 X40.53 Y21.16 E28.112 F1500
G1 X42.92 Y25.30 E28.125 F1500
G1 Z6.30 F1200 ; Adaptive Layer Height: 0.05mm
G1 X43.74 Y30.00 E28.137 F1500
G1 X42.91 Y34.70 E28.150 F1500
G1 X40.53 Y38.83 E28.162 F1500
G1 X36.87 Y41.90 E28.175 F1500
G1 X32.39 Y43.53 E28.187 F1500
G1 X27.61 Y43.53 E28.200 F1500
G1 X23.13 Y41.90 E28.212 F1500
G1 X19.47 Y38.83 E28.225 F1500
G1 X17.09 Y34.70 E28.237 F1500
G1 X16.26 Y30.00 E28.250 F1500
G1 X17.09 Y25.30 E28.262 F1500
G1 X19.47 Y21.17 E28.275 F1500
G1 X23.13 Y18.10 E28.287 F1500
G1 X27.61 Y16.47 E28.300 F1500
G1 X32.39 Y16.47 E28.312 F1500
G1 X36.87 Y18.10 E28.325 F1500
G1 X40.53 Y21.17 E28.337 F1500
G1 X42.91 Y25.30 E28.350 F1500
G1 Z6.35 F1200 ; Adaptive Layer Height: 0.05mm
