; FLAVOR:RepRap
; MINX:10
; MINY:10
; MINZ:0
; MAXX:50
; MAXY:50
; MAXZ:20
; Generated by Medical AI Zirconia Optimizer (Z.ai)
M104 S210 ; Set nozzle temp
M140 S60  ; Set bed temp
G28 ; Home all axes
G1 Z5 F5000 ; Lift nozzle
M109 S210 ; Wait for nozzle temp
G92 E0 ; Reset extruder
G1 F200 E3 ; Prime extruder
G92 E0
; AI Optimized Patient-Specific Implant - Gradient Stress Infill
G1 Z0.00 F1200
G1 X10 Y10.00 F3000
G1 X20.0 Y10.00 E0.100 F1500
G1 X30 Y10.00 E0.200 F1500
G1 X10 Y12.00 F3000
G1 X20.0 Y12.00 E0.300 F1500
G1 X30 Y12.00 E0.400 F1500
G1 X10 Y14.00 F3000
G1 X20.0 Y14.00 E0.500 F1500
G1 X30 Y14.00 E0.600 F1500
G1 X10 Y16.00 F3000
G1 X20.0 Y16.00 E0.900 F1500
G1 X30 Y16.00 E1.200 F1500
G1 X20.0 Y15 F3000
G1 X20.0 Y17 E1.400 F1500
G1 X10 Y18.00 F3000
G1 X20.0 Y18.00 E1.700 F1500
G1 X30 Y18.00 E2.000 F1500
G1 X20.0 Y17 F3000
G1 X20.0 Y19 E2.200 F1500
G1 X10 Y20.00 F3000
G1 X20.0 Y20.00 E2.500 F1500
G1 X30 Y20.00 E2.800 F1500
G1 X20.0 Y19 F3000
G1 X20.0 Y21 E3.000 F1500
G1 X10 Y22.00 F3000
G1 X20.0 Y22.00 E3.300 F1500
G1 X30 Y22.00 E3.600 F1500
G1 X20.0 Y21 F3000
G1 X20.0 Y23 E3.800 F1500
G1 X10 Y24.00 F3000
G1 X20.0 Y24.00 E4.100 F1500
G1 X30 Y24.00 E4.400 F1500
G1 X20.0 Y23 F3000
G1 X20.0 Y25 E4.600 F1500
G1 X10 Y26.00 F3000
G1 X20.0 Y26.00 E4.700 F1500
G1 X30 Y26.00 E4.800 F1500
G1 X10 Y28.00 F3000
G1 X20.0 Y28.00 E4.900 F1500
G1 X30 Y28.00 E5.000 F1500
G1 Z0.20 F1200
G1 X10 Y10.00 F3000
G1 X20.0 Y10.00 E5.100 F1500
G1 X30 Y10.00 E5.200 F1500
G1 X10 Y12.00 F3000
G1 X20.0 Y12.00 E5.300 F1500
G1 X30 Y12.00 E5.400 F1500
G1 X10 Y14.00 F3000
G1 X20.0 Y14.00 E5.500 F1500
G1 X30 Y14.00 E5.600 F1500
G1 X10 Y16.00 F3000
G1 X20.0 Y16.00 E5.900 F1500
G1 X30 Y16.00 E6.200 F1500
G1 X20.0 Y15 F3000
G1 X20.0 Y17 E6.400 F1500
G1 X10 Y18.00 F3000
G1 X20.0 Y18.00 E6.700 F1500
G1 X30 Y18.00 E7.000 F1500
G1 X20.0 Y17 F3000
G1 X20.0 Y19 E7.200 F1500
G1 X10 Y20.00 F3000
G1 X20.0 Y20.00 E7.500 F1500
G1 X30 Y20.00 E7.800 F1500
G1 X20.0 Y19 F3000
G1 X20.0 Y21 E8.000 F1500
G1 X10 Y22.00 F3000
G1 X20.0 Y22.00 E8.300 F1500
G1 X30 Y22.00 E8.600 F1500
G1 X20.0 Y21 F3000
G1 X20.0 Y23 E8.800 F1500
G1 X10 Y24.00 F3000
G1 X20.0 Y24.00 E9.100 F1500
G1 X30 Y24.00 E9.400 F1500
G1 X20.0 Y23 F3000
G1 X20.0 Y25 E9.600 F1500
G1 X10 Y26.00 F3000
G1 X20.0 Y26.00 E9.700 F1500
G1 X30 Y26.00 E9.800 F1500
G1 X10 Y28.00 F3000
G1 X20.0 Y28.00 E9.900 F1500
G1 X30 Y28.00 E10.000 F1500
G1 Z0.40 F1200
G1 X10 Y10.00 F3000
G1 X20.0 Y10.00 E10.100 F1500
G1 X30 Y10.00 E10.200 F1500
G1 X10 Y12.00 F3000
G1 X20.0 Y12.00 E10.300 F1500
G1 X30 Y12.00 E10.400 F1500
G1 X10 Y14.00 F3000
G1 X20.0 Y14.00 E10.500 F1500
G1 X30 Y14.00 E10.600 F1500
G1 X10 Y16.00 F3000
G1 X20.0 Y16.00 E10.900 F1500
G1 X30 Y16.00 E11.200 F1500
G1 X20.0 Y15 F3000
G1 X20.0 Y17 E11.400 F1500
G1 X10 Y18.00 F3000
G1 X20.0 Y18.00 E11.700 F1500
G1 X30 Y18.00 E12.000 F1500
G1 X20.0 Y17 F3000
G1 X20.0 Y19 E12.200 F1500
G1 X10 Y20.00 F3000
G1 X20.0 Y20.00 E12.500 F1500
G1 X30 Y20.00 E12.800 F1500
G1 X20.0 Y19 F3000
G1 X20.0 Y21 E13.000 F1500
G1 X10 Y22.00 F3000
G1 X20.0 Y22.00 E13.300 F1500
G1 X30 Y22.00 E13.600 F1500
G1 X20.0 Y21 F3000
G1 X20.0 Y23 E13.800 F1500
G1 X10 Y24.00 F3000
G1 X20.0 Y24.00 E14.100 F1500
G1 X30 Y24.00 E14.400 F1500
G1 X20.0 Y23 F3000
G1 X20.0 Y25 E14.600 F1500
G1 X10 Y26.00 F3000
G1 X20.0 Y26.00 E14.700 F1500
G1 X30 Y26.00 E14.800 F1500
G1 X10 Y28.00 F3000
G1 X20.0 Y28.00 E14.900 F1500
G1 X30 Y28.00 E15.000 F1500
G1 Z0.60 F1200
G1 X10 Y10.00 F3000
G1 X20.0 Y10.00 E15.100 F1500
G1 X30 Y10.00 E15.200 F1500
G1 X10 Y12.00 F3000
G1 X20.0 Y12.00 E15.300 F1500
G1 X30 Y12.00 E15.400 F1500
G1 X10 Y14.00 F3000
G1 X20.0 Y14.00 E15.500 F1500
G1 X30 Y14.00 E15.600 F1500
G1 X10 Y16.00 F3000
G1 X20.0 Y16.00 E15.900 F1500
G1 X30 Y16.00 E16.200 F1500
G1 X20.0 Y15 F3000
G1 X20.0 Y17 E16.400 F1500
G1 X10 Y18.00 F3000
G1 X20.0 Y18.00 E16.700 F1500
G1 X30 Y18.00 E17.000 F1500
G1 X20.0 Y17 F3000
G1 X20.0 Y19 E17.200 F1500
G1 X10 Y20.00 F3000
G1 X20.0 Y20.00 E17.500 F1500
G1 X30 Y20.00 E17.800 F1500
G1 X20.0 Y19 F3000
G1 X20.0 Y21 E18.000 F1500
G1 X10 Y22.00 F3000
G1 X20.0 Y22.00 E18.300 F1500
G1 X30 Y22.00 E18.600 F1500
G1 X20.0 Y21 F3000
G1 X20.0 Y23 E18.800 F1500
G1 X10 Y24.00 F3000
G1 X20.0 Y24.00 E19.100 F1500
G1 X30 Y24.00 E19.400 F1500
G1 X20.0 Y23 F3000
G1 X20.0 Y25 E19.600 F1500
G1 X10 Y26.00 F3000
G1 X20.0 Y26.00 E19.700 F1500
G1 X30 Y26.00 E19.800 F1500
G1 X10 Y28.00 F3000
G1 X20.0 Y28.00 E19.900 F1500
G1 X30 Y28.00 E20.000 F1500
G1 Z0.80 F1200
G1 X10 Y10.00 F3000
G1 X20.0 Y10.00 E20.100 F1500
G1 X30 Y10.00 E20.200 F1500
G1 X10 Y12.00 F3000
G1 X20.0 Y12.00 E20.300 F1500
G1 X30 Y12.00 E20.400 F1500
G1 X10 Y14.00 F3000
G1 X20.0 Y14.00 E20.500 F1500
G1 X30 Y14.00 E20.600 F1500
G1 X10 Y16.00 F3000
G1 X20.0 Y16.00 E20.900 F1500
G1 X30 Y16.00 E21.200 F1500
G1 X20.0 Y15 F3000
G1 X20.0 Y17 E21.400 F1500
G1 X10 Y18.00 F3000
G1 X20.0 Y18.00 E21.700 F1500
G1 X30 Y18.00 E22.000 F1500
G1 X20.0 Y17 F3000
G1 X20.0 Y19 E22.200 F1500
G1 X10 Y20.00 F3000
G1 X20.0 Y20.00 E22.500 F1500
G1 X30 Y20.00 E22.800 F1500
G1 X20.0 Y19 F3000
G1 X20.0 Y21 E23.000 F1500
G1 X10 Y22.00 F3000
G1 X20.0 Y22.00 E23.300 F1500
G1 X30 Y22.00 E23.600 F1500
G1 X20.0 Y21 F3000
G1 X20.0 Y23 E23.800 F1500
G1 X10 Y24.00 F3000
G1 X20.0 Y24.00 E24.100 F1500
G1 X30 Y24.00 E24.400 F1500
G1 X20.0 Y23 F3000
G1 X20.0 Y25 E24.600 F1500
G1 X10 Y26.00 F3000
G1 X20.0 Y26.00 E24.700 F1500
G1 X30 Y26.00 E24.800 F1500
G1 X10 Y28.00 F3000
G1 X20.0 Y28.00 E24.900 F1500
G1 X30 Y28.00 E25.000 F1500
G1 Z1.00 F1200
G1 X10 Y10.00 F3000
G1 X20.0 Y10.00 E25.100 F1500
G1 X30 Y10.00 E25.200 F1500
G1 X10 Y12.00 F3000
G1 X20.0 Y12.00 E25.300 F1500
G1 X30 Y12.00 E25.400 F1500
G1 X10 Y14.00 F3000
G1 X20.0 Y14.00 E25.500 F1500
G1 X30 Y14.00 E25.600 F1500
G1 X10 Y16.00 F3000
G1 X20.0 Y16.00 E25.900 F1500
G1 X30 Y16.00 E26.200 F1500
G1 X20.0 Y15 F3000
G1 X20.0 Y17 E26.400 F1500
G1 X10 Y18.00 F3000
G1 X20.0 Y18.00 E26.700 F1500
G1 X30 Y18.00 E27.000 F1500
G1 X20.0 Y17 F3000
G1 X20.0 Y19 E27.200 F1500
G1 X10 Y20.00 F3000
G1 X20.0 Y20.00 E27.500 F1500
G1 X30 Y20.00 E27.800 F1500
G1 X20.0 Y19 F3000
G1 X20.0 Y21 E28.000 F1500
G1 X10 Y22.00 F3000
G1 X20.0 Y22.00 E28.300 F1500
G1 X30 Y22.00 E28.600 F1500
G1 X20.0 Y21 F3000
G1 X20.0 Y23 E28.800 F1500
G1 X10 Y24.00 F3000
G1 X20.0 Y24.00 E29.100 F1500
G1 X30 Y24.00 E29.400 F1500
G1 X20.0 Y23 F3000
G1 X20.0 Y25 E29.600 F1500
G1 X10 Y26.00 F3000
G1 X20.0 Y26.00 E29.700 F1500
G1 X30 Y26.00 E29.800 F1500
G1 X10 Y28.00 F3000
G1 X20.0 Y28.00 E29.900 F1500
G1 X30 Y28.00 E30.000 F1500
G1 Z1.20 F1200
G1 X10 Y10.00 F3000
G1 X20.0 Y10.00 E30.100 F1500
G1 X30 Y10.00 E30.200 F1500
G1 X10 Y12.00 F3000
G1 X20.0 Y12.00 E30.300 F1500
G1 X30 Y12.00 E30.400 F1500
G1 X10 Y14.00 F3000
G1 X20.0 Y14.00 E30.500 F1500
G1 X30 Y14.00 E30.600 F1500
G1 X10 Y16.00 F3000
G1 X20.0 Y16.00 E30.900 F1500
G1 X30 Y16.00 E31.200 F1500
G1 X20.0 Y15 F3000
G1 X20.0 Y17 E31.400 F1500
G1 X10 Y18.00 F3000
G1 X20.0 Y18.00 E31.700 F1500
G1 X30 Y18.00 E32.000 F1500
G1 X20.0 Y17 F3000
G1 X20.0 Y19 E32.200 F1500
G1 X10 Y20.00 F3000
G1 X20.0 Y20.00 E32.500 F1500
G1 X30 Y20.00 E32.800 F1500
G1 X20.0 Y19 F3000
G1 X20.0 Y21 E33.000 F1500
G1 X10 Y22.00 F3000
G1 X20.0 Y22.00 E33.300 F1500
G1 X30 Y22.00 E33.600 F1500
G1 X20.0 Y21 F3000
G1 X20.0 Y23 E33.800 F1500
G1 X10 Y24.00 F3000
G1 X20.0 Y24.00 E34.100 F1500
G1 X30 Y24.00 E34.400 F1500
G1 X20.0 Y23 F3000
G1 X20.0 Y25 E34.600 F1500
G1 X10 Y26.00 F3000
G1 X20.0 Y26.00 E34.700 F1500
G1 X30 Y26.00 E34.800 F1500
G1 X10 Y28.00 F3000
G1 X20.0 Y28.00 E34.900 F1500
G1 X30 Y28.00 E35.000 F1500
G1 Z1.40 F1200
G1 X10 Y10.00 F3000
G1 X20.0 Y10.00 E35.100 F1500
G1 X30 Y10.00 E35.200 F1500
G1 X10 Y12.00 F3000
G1 X20.0 Y12.00 E35.300 F1500
G1 X30 Y12.00 E35.400 F1500
G1 X10 Y14.00 F3000
G1 X20.0 Y14.00 E35.500 F1500
G1 X30 Y14.00 E35.600 F1500
G1 X10 Y16.00 F3000
G1 X20.0 Y16.00 E35.900 F1500
G1 X30 Y16.00 E36.200 F1500
G1 X20.0 Y15 F3000
G1 X20.0 Y17 E36.400 F1500
G1 X10 Y18.00 F3000
G1 X20.0 Y18.00 E36.700 F1500
G1 X30 Y18.00 E37.000 F1500
G1 X20.0 Y17 F3000
G1 X20.0 Y19 E37.200 F1500
G1 X10 Y20.00 F3000
G1 X20.0 Y20.00 E37.500 F1500
G1 X30 Y20.00 E37.800 F1500
G1 X20.0 Y19 F3000
G1 X20.0 Y21 E38.000 F1500
G1 X10 Y22.00 F3000
G1 X20.0 Y22.00 E38.300 F1500
G1 X30 Y22.00 E38.600 F1500
G1 X20.0 Y21 F3000
G1 X20.0 Y23 E38.800 F1500
G1 X10 Y24.00 F3000
G1 X20.0 Y24.00 E39.100 F1500
G1 X30 Y24.00 E39.400 F1500
G1 X20.0 Y23 F3000
G1 X20.0 Y25 E39.600 F1500
G1 X10 Y26.00 F3000
G1 X20.0 Y26.00 E39.700 F1500
G1 X30 Y26.00 E39.800 F1500
G1 X10 Y28.00 F3000
G1 X20.0 Y28.00 E39.900 F1500
G1 X30 Y28.00 E40.000 F1500
G1 Z1.60 F1200
G1 X10 Y10.00 F3000
G1 X20.0 Y10.00 E40.100 F1500
G1 X30 Y10.00 E40.200 F1500
G1 X10 Y12.00 F3000
G1 X20.0 Y12.00 E40.300 F1500
G1 X30 Y12.00 E40.400 F1500
G1 X10 Y14.00 F3000
G1 X20.0 Y14.00 E40.500 F1500
G1 X30 Y14.00 E40.600 F1500
G1 X10 Y16.00 F3000
G1 X20.0 Y16.00 E40.900 F1500
G1 X30 Y16.00 E41.200 F1500
G1 X20.0 Y15 F3000
G1 X20.0 Y17 E41.400 F1500
G1 X10 Y18.00 F3000
G1 X20.0 Y18.00 E41.700 F1500
G1 X30 Y18.00 E42.000 F1500
G1 X20.0 Y17 F3000
G1 X20.0 Y19 E42.200 F1500
G1 X10 Y20.00 F3000
G1 X20.0 Y20.00 E42.500 F1500
G1 X30 Y20.00 E42.800 F1500
G1 X20.0 Y19 F3000
G1 X20.0 Y21 E43.000 F1500
G1 X10 Y22.00 F3000
G1 X20.0 Y22.00 E43.300 F1500
G1 X30 Y22.00 E43.600 F1500
G1 X20.0 Y21 F3000
G1 X20.0 Y23 E43.800 F1500
G1 X10 Y24.00 F3000
G1 X20.0 Y24.00 E44.100 F1500
G1 X30 Y24.00 E44.400 F1500
G1 X20.0 Y23 F3000
G1 X20.0 Y25 E44.600 F1500
G1 X10 Y26.00 F3000
G1 X20.0 Y26.00 E44.700 F1500
G1 X30 Y26.00 E44.800 F1500
G1 X10 Y28.00 F3000
G1 X20.0 Y28.00 E44.900 F1500
G1 X30 Y28.00 E45.000 F1500
G1 Z1.80 F1200
G1 X10 Y10.00 F3000
G1 X20.0 Y10.00 E45.100 F1500
G1 X30 Y10.00 E45.200 F1500
G1 X10 Y12.00 F3000
G1 X20.0 Y12.00 E45.300 F1500
G1 X30 Y12.00 E45.400 F1500
G1 X10 Y14.00 F3000
G1 X20.0 Y14.00 E45.500 F1500
G1 X30 Y14.00 E45.600 F1500
G1 X10 Y16.00 F3000
G1 X20.0 Y16.00 E45.900 F1500
G1 X30 Y16.00 E46.200 F1500
G1 X20.0 Y15 F3000
G1 X20.0 Y17 E46.400 F1500
G1 X10 Y18.00 F3000
G1 X20.0 Y18.00 E46.700 F1500
G1 X30 Y18.00 E47.000 F1500
G1 X20.0 Y17 F3000
G1 X20.0 Y19 E47.200 F1500
G1 X10 Y20.00 F3000
G1 X20.0 Y20.00 E47.500 F1500
G1 X30 Y20.00 E47.800 F1500
G1 X20.0 Y19 F3000
G1 X20.0 Y21 E48.000 F1500
G1 X10 Y22.00 F3000
G1 X20.0 Y22.00 E48.300 F1500
G1 X30 Y22.00 E48.600 F1500
G1 X20.0 Y21 F3000
G1 X20.0 Y23 E48.800 F1500
G1 X10 Y24.00 F3000
G1 X20.0 Y24.00 E49.100 F1500
G1 X30 Y24.00 E49.400 F1500
G1 X20.0 Y23 F3000
G1 X20.0 Y25 E49.600 F1500
G1 X10 Y26.00 F3000
G1 X20.0 Y26.00 E49.700 F1500
G1 X30 Y26.00 E49.800 F1500
G1 X10 Y28.00 F3000
G1 X20.0 Y28.00 E49.900 F1500
G1 X30 Y28.00 E50.000 F1500
G1 Z2.00 F1200
G1 X10 Y10.00 F3000
G1 X20.0 Y10.00 E50.100 F1500
G1 X30 Y10.00 E50.200 F1500
G1 X10 Y12.00 F3000
G1 X20.0 Y12.00 E50.300 F1500
G1 X30 Y12.00 E50.400 F1500
G1 X10 Y14.00 F3000
G1 X20.0 Y14.00 E50.500 F1500
G1 X30 Y14.00 E50.600 F1500
G1 X10 Y16.00 F3000
G1 X20.0 Y16.00 E50.900 F1500
G1 X30 Y16.00 E51.200 F1500
G1 X20.0 Y15 F3000
G1 X20.0 Y17 E51.400 F1500
G1 X10 Y18.00 F3000
G1 X20.0 Y18.00 E51.700 F1500
G1 X30 Y18.00 E52.000 F1500
G1 X20.0 Y17 F3000
G1 X20.0 Y19 E52.200 F1500
G1 X10 Y20.00 F3000
G1 X20.0 Y20.00 E52.500 F1500
G1 X30 Y20.00 E52.800 F1500
G1 X20.0 Y19 F3000
G1 X20.0 Y21 E53.000 F1500
G1 X10 Y22.00 F3000
G1 X20.0 Y22.00 E53.300 F1500
G1 X30 Y22.00 E53.600 F1500
G1 X20.0 Y21 F3000
G1 X20.0 Y23 E53.800 F1500
G1 X10 Y24.00 F3000
G1 X20.0 Y24.00 E54.100 F1500
G1 X30 Y24.00 E54.400 F1500
G1 X20.0 Y23 F3000
G1 X20.0 Y25 E54.600 F1500
G1 X10 Y26.00 F3000
G1 X20.0 Y26.00 E54.700 F1500
G1 X30 Y26.00 E54.800 F1500
G1 X10 Y28.00 F3000
G1 X20.0 Y28.00 E54.900 F1500
G1 X30 Y28.00 E55.000 F1500
G1 Z2.20 F1200
G1 X10 Y10.00 F3000
G1 X20.0 Y10.00 E55.100 F1500
G1 X30 Y10.00 E55.200 F1500
G1 X10 Y12.00 F3000
G1 X20.0 Y12.00 E55.300 F1500
G1 X30 Y12.00 E55.400 F1500
G1 X10 Y14.00 F3000
G1 X20.0 Y14.00 E55.500 F1500
G1 X30 Y14.00 E55.600 F1500
G1 X10 Y16.00 F3000
G1 X20.0 Y16.00 E55.900 F1500
G1 X30 Y16.00 E56.200 F1500
G1 X20.0 Y15 F3000
G1 X20.0 Y17 E56.400 F1500
G1 X10 Y18.00 F3000
G1 X20.0 Y18.00 E56.700 F1500
G1 X30 Y18.00 E57.000 F1500
G1 X20.0 Y17 F3000
G1 X20.0 Y19 E57.200 F1500
G1 X10 Y20.00 F3000
G1 X20.0 Y20.00 E57.500 F1500
G1 X30 Y20.00 E57.800 F1500
G1 X20.0 Y19 F3000
G1 X20.0 Y21 E58.000 F1500
G1 X10 Y22.00 F3000
G1 X20.0 Y22.00 E58.300 F1500
G1 X30 Y22.00 E58.600 F1500
G1 X20.0 Y21 F3000
G1 X20.0 Y23 E58.800 F1500
G1 X10 Y24.00 F3000
G1 X20.0 Y24.00 E59.100 F1500
G1 X30 Y24.00 E59.400 F1500
G1 X20.0 Y23 F3000
G1 X20.0 Y25 E59.600 F1500
G1 X10 Y26.00 F3000
G1 X20.0 Y26.00 E59.700 F1500
G1 X30 Y26.00 E59.800 F1500
G1 X10 Y28.00 F3000
G1 X20.0 Y28.00 E59.900 F1500
G1 X30 Y28.00 E60.000 F1500
G1 Z2.40 F1200
G1 X10 Y10.00 F3000
G1 X20.0 Y10.00 E60.100 F1500
G1 X30 Y10.00 E60.200 F1500
G1 X10 Y12.00 F3000
G1 X20.0 Y12.00 E60.300 F1500
G1 X30 Y12.00 E60.400 F1500
G1 X10 Y14.00 F3000
G1 X20.0 Y14.00 E60.500 F1500
G1 X30 Y14.00 E60.600 F1500
G1 X10 Y16.00 F3000
G1 X20.0 Y16.00 E60.900 F1500
G1 X30 Y16.00 E61.200 F1500
G1 X20.0 Y15 F3000
G1 X20.0 Y17 E61.400 F1500
G1 X10 Y18.00 F3000
G1 X20.0 Y18.00 E61.700 F1500
G1 X30 Y18.00 E62.000 F1500
G1 X20.0 Y17 F3000
G1 X20.0 Y19 E62.200 F1500
G1 X10 Y20.00 F3000
G1 X20.0 Y20.00 E62.500 F1500
G1 X30 Y20.00 E62.800 F1500
G1 X20.0 Y19 F3000
G1 X20.0 Y21 E63.000 F1500
G1 X10 Y22.00 F3000
G1 X20.0 Y22.00 E63.300 F1500
G1 X30 Y22.00 E63.600 F1500
G1 X20.0 Y21 F3000
G1 X20.0 Y23 E63.800 F1500
G1 X10 Y24.00 F3000
G1 X20.0 Y24.00 E64.100 F1500
G1 X30 Y24.00 E64.400 F1500
G1 X20.0 Y23 F3000
G1 X20.0 Y25 E64.600 F1500
G1 X10 Y26.00 F3000
G1 X20.0 Y26.00 E64.700 F1500
G1 X30 Y26.00 E64.800 F1500
G1 X10 Y28.00 F3000
G1 X20.0 Y28.00 E64.900 F1500
G1 X30 Y28.00 E65.000 F1500
G1 Z2.60 F1200
G1 X10 Y10.00 F3000
G1 X20.0 Y10.00 E65.100 F1500
G1 X30 Y10.00 E65.200 F1500
G1 X10 Y12.00 F3000
G1 X20.0 Y12.00 E65.300 F1500
G1 X30 Y12.00 E65.400 F1500
G1 X10 Y14.00 F3000
G1 X20.0 Y14.00 E65.500 F1500
G1 X30 Y14.00 E65.600 F1500
G1 X10 Y16.00 F3000
G1 X20.0 Y16.00 E65.900 F1500
G1 X30 Y16.00 E66.200 F1500
G1 X20.0 Y15 F3000
G1 X20.0 Y17 E66.400 F1500
G1 X10 Y18.00 F3000
G1 X20.0 Y18.00 E66.700 F1500
G1 X30 Y18.00 E67.000 F1500
G1 X20.0 Y17 F3000
G1 X20.0 Y19 E67.200 F1500
G1 X10 Y20.00 F3000
G1 X20.0 Y20.00 E67.500 F1500
G1 X30 Y20.00 E67.800 F1500
G1 X20.0 Y19 F3000
G1 X20.0 Y21 E68.000 F1500
G1 X10 Y22.00 F3000
G1 X20.0 Y22.00 E68.300 F1500
G1 X30 Y22.00 E68.600 F1500
G1 X20.0 Y21 F3000
G1 X20.0 Y23 E68.800 F1500
G1 X10 Y24.00 F3000
G1 X20.0 Y24.00 E69.100 F1500
G1 X30 Y24.00 E69.400 F1500
G1 X20.0 Y23 F3000
G1 X20.0 Y25 E69.600 F1500
G1 X10 Y26.00 F3000
G1 X20.0 Y26.00 E69.700 F1500
G1 X30 Y26.00 E69.800 F1500
G1 X10 Y28.00 F3000
G1 X20.0 Y28.00 E69.900 F1500
G1 X30 Y28.00 E70.000 F1500
G1 Z2.80 F1200
G1 X10 Y10.00 F3000
G1 X20.0 Y10.00 E70.100 F1500
G1 X30 Y10.00 E70.200 F1500
G1 X10 Y12.00 F3000
G1 X20.0 Y12.00 E70.300 F1500
G1 X30 Y12.00 E70.400 F1500
G1 X10 Y14.00 F3000
G1 X20.0 Y14.00 E70.500 F1500
G1 X30 Y14.00 E70.600 F1500
G1 X10 Y16.00 F3000
G1 X20.0 Y16.00 E70.900 F1500
G1 X30 Y16.00 E71.200 F1500
G1 X20.0 Y15 F3000
G1 X20.0 Y17 E71.400 F1500
G1 X10 Y18.00 F3000
G1 X20.0 Y18.00 E71.700 F1500
G1 X30 Y18.00 E72.000 F1500
G1 X20.0 Y17 F3000
G1 X20.0 Y19 E72.200 F1500
G1 X10 Y20.00 F3000
G1 X20.0 Y20.00 E72.500 F1500
G1 X30 Y20.00 E72.800 F1500
G1 X20.0 Y19 F3000
G1 X20.0 Y21 E73.000 F1500
G1 X10 Y22.00 F3000
G1 X20.0 Y22.00 E73.300 F1500
G1 X30 Y22.00 E73.600 F1500
G1 X20.0 Y21 F3000
G1 X20.0 Y23 E73.800 F1500
G1 X10 Y24.00 F3000
G1 X20.0 Y24.00 E74.100 F1500
G1 X30 Y24.00 E74.400 F1500
G1 X20.0 Y23 F3000
G1 X20.0 Y25 E74.600 F1500
G1 X10 Y26.00 F3000
G1 X20.0 Y26.00 E74.700 F1500
G1 X30 Y26.00 E74.800 F1500
G1 X10 Y28.00 F3000
G1 X20.0 Y28.00 E74.900 F1500
G1 X30 Y28.00 E75.000 F1500
G1 Z3.00 F1200
G1 X10 Y10.00 F3000
G1 X20.0 Y10.00 E75.100 F1500
G1 X30 Y10.00 E75.200 F1500
G1 X10 Y12.00 F3000
G1 X20.0 Y12.00 E75.300 F1500
G1 X30 Y12.00 E75.400 F1500
G1 X10 Y14.00 F3000
G1 X20.0 Y14.00 E75.500 F1500
G1 X30 Y14.00 E75.600 F1500
G1 X10 Y16.00 F3000
