; FLAVOR:RepRap
; MINX:10
; MINY:10
; MINZ:0
; MAXX:50
; MAXY:50
; MAXZ:20
; Generated by Medical AI Zirconia Optimizer (Z.ai)
M104 S210 ; Set nozzle temp
M140 S60  ; Set bed temp
G28 ; Home all axes
G1 Z5 F5000 ; Lift nozzle
M109 S210 ; Wait for nozzle temp
G92 E0 ; Reset extruder
G1 F200 E3 ; Prime extruder
G92 E0
; Pre-Surgery Anatomical Planning Model (Jawbone & Defect) from Real Patient Data
G1 Z0.00 F1200
G1 X25.00 Y25.00 E0.020 F1500
G1 X25.00 Y30.00 E0.040 F1500
G1 X25.00 Y35.00 E0.060 F1500
G1 X25.00 Y40.00 E0.080 F1500
G1 X25.00 Y45.00 E0.100 F1500
G1 X30.00 Y25.00 E0.120 F1500
G1 X30.00 Y30.00 E0.140 F1500
G1 X30.00 Y35.00 E0.160 F1500
G1 X30.00 Y40.00 E0.180 F1500
G1 X30.00 Y45.00 E0.200 F1500
G1 X35.00 Y25.00 E0.220 F1500
G1 X35.00 Y30.00 E0.240 F1500
G1 X35.00 Y35.00 E0.260 F1500
G1 X35.00 Y40.00 E0.280 F1500
G1 X35.00 Y45.00 E0.300 F1500
G1 X40.00 Y25.00 E0.320 F1500
G1 X40.00 Y30.00 E0.340 F1500
G1 X40.00 Y35.00 E0.360 F1500
G1 X40.00 Y40.00 E0.380 F1500
G1 X40.00 Y45.00 E0.400 F1500
G1 X45.00 Y25.00 E0.420 F1500
G1 X45.00 Y30.00 E0.440 F1500
G1 X45.00 Y35.00 E0.460 F1500
G1 X45.00 Y40.00 E0.480 F1500
G1 X45.00 Y45.00 E0.500 F1500
G1 Z3.00 F1200
G1 X25.00 Y25.00 E0.520 F1500
G1 X25.00 Y30.00 E0.540 F1500
G1 X25.00 Y35.00 E0.560 F1500
G1 X25.00 Y40.00 E0.580 F1500
G1 X25.00 Y45.00 E0.600 F1500
G1 X30.00 Y25.00 E0.620 F1500
G1 X30.00 Y30.00 E0.640 F1500
G1 X30.00 Y35.00 E0.660 F1500
G1 X30.00 Y40.00 E0.680 F1500
G1 X30.00 Y45.00 E0.700 F1500
G1 X35.00 Y25.00 E0.720 F1500
G1 X35.00 Y30.00 E0.740 F1500
G1 X35.00 Y35.00 E0.760 F1500
G1 X35.00 Y40.00 E0.780 F1500
G1 X35.00 Y45.00 E0.800 F1500
G1 X40.00 Y25.00 E0.820 F1500
G1 X40.00 Y30.00 E0.840 F1500
G1 X40.00 Y35.00 E0.860 F1500
G1 X40.00 Y40.00 E0.880 F1500
G1 X40.00 Y45.00 E0.900 F1500
G1 X45.00 Y25.00 E0.920 F1500
G1 X45.00 Y30.00 E0.940 F1500
G1 X45.00 Y35.00 E0.960 F1500
G1 X45.00 Y40.00 E0.980 F1500
G1 X45.00 Y45.00 E1.000 F1500
G1 Z6.00 F1200
G1 X25.00 Y25.00 E1.020 F1500
G1 X25.00 Y30.00 E1.040 F1500
G1 X25.00 Y35.00 E1.060 F1500
G1 X25.00 Y40.00 E1.080 F1500
G1 X25.00 Y45.00 E1.100 F1500
G1 X30.00 Y25.00 E1.120 F1500
G1 X30.00 Y30.00 E1.140 F1500
G1 X30.00 Y35.00 E1.160 F1500
G1 X30.00 Y40.00 E1.180 F1500
G1 X30.00 Y45.00 E1.200 F1500
G1 X35.00 Y25.00 E1.220 F1500
G1 X35.00 Y30.00 E1.240 F1500
G1 X35.00 Y35.00 E1.260 F1500
G1 X35.00 Y40.00 E1.280 F1500
G1 X35.00 Y45.00 E1.300 F1500
G1 X40.00 Y25.00 E1.320 F1500
G1 X40.00 Y30.00 E1.340 F1500
G1 X40.00 Y35.00 E1.360 F1500
G1 X40.00 Y40.00 E1.380 F1500
G1 X40.00 Y45.00 E1.400 F1500
G1 X45.00 Y25.00 E1.420 F1500
G1 X45.00 Y30.00 E1.440 F1500
G1 X45.00 Y35.00 E1.460 F1500
G1 X45.00 Y40.00 E1.480 F1500
G1 X45.00 Y45.00 E1.500 F1500
G1 Z9.00 F1200
G1 X25.00 Y25.00 E1.520 F1500
G1 X25.00 Y30.00 E1.540 F1500
G1 X25.00 Y35.00 E1.560 F1500
G1 X25.00 Y40.00 E1.580 F1500
G1 X25.00 Y45.00 E1.600 F1500
G1 X30.00 Y25.00 E1.620 F1500
G1 X30.00 Y30.00 E1.640 F1500
G1 X30.00 Y35.00 E1.660 F1500
G1 X30.00 Y40.00 E1.680 F1500
G1 X30.00 Y45.00 E1.700 F1500
G1 X35.00 Y25.00 E1.720 F1500
G1 X35.00 Y30.00 E1.740 F1500
G1 X35.00 Y35.00 E1.760 F1500
G1 X35.00 Y40.00 E1.780 F1500
G1 X35.00 Y45.00 E1.800 F1500
G1 X40.00 Y25.00 E1.820 F1500
G1 X40.00 Y30.00 E1.840 F1500
G1 X40.00 Y35.00 E1.860 F1500
G1 X40.00 Y40.00 E1.880 F1500
G1 X40.00 Y45.00 E1.900 F1500
G1 X45.00 Y25.00 E1.920 F1500
G1 X45.00 Y30.00 E1.940 F1500
G1 X45.00 Y35.00 E1.960 F1500
G1 X45.00 Y40.00 E1.980 F1500
G1 X45.00 Y45.00 E2.000 F1500
G1 Z12.00 F1200
G1 X25.00 Y25.00 E2.020 F1500
G1 X25.00 Y30.00 E2.040 F1500
G1 X25.00 Y35.00 E2.060 F1500
G1 X25.00 Y40.00 E2.080 F1500
G1 X25.00 Y45.00 E2.100 F1500
G1 X30.00 Y25.00 E2.120 F1500
G1 X30.00 Y30.00 E2.140 F1500
G1 X30.00 Y35.00 E2.160 F1500
G1 X30.00 Y40.00 E2.180 F1500
G1 X30.00 Y45.00 E2.200 F1500
G1 X35.00 Y25.00 E2.220 F1500
G1 X35.00 Y30.00 E2.240 F1500
G1 X35.00 Y35.00 E2.260 F1500
G1 X35.00 Y40.00 E2.280 F1500
G1 X35.00 Y45.00 E2.300 F1500
G1 X40.00 Y25.00 E2.320 F1500
G1 X40.00 Y30.00 E2.340 F1500
G1 X40.00 Y35.00 E2.360 F1500
G1 X40.00 Y40.00 E2.380 F1500
G1 X40.00 Y45.00 E2.400 F1500
G1 X45.00 Y25.00 E2.420 F1500
G1 X45.00 Y30.00 E2.440 F1500
G1 X45.00 Y35.00 E2.460 F1500
G1 X45.00 Y40.00 E2.480 F1500
G1 X45.00 Y45.00 E2.500 F1500
G1 Z15.00 F1200
G1 X25.00 Y25.00 E2.520 F1500
G1 X25.00 Y30.00 E2.540 F1500
G1 X25.00 Y35.00 E2.560 F1500
G1 X25.00 Y40.00 E2.580 F1500
G1 X25.00 Y45.00 E2.600 F1500
G1 X30.00 Y25.00 E2.620 F1500
G1 X30.00 Y30.00 E2.640 F1500
G1 X30.00 Y35.00 E2.660 F1500
G1 X30.00 Y40.00 E2.680 F1500
G1 X30.00 Y45.00 E2.700 F1500
G1 X35.00 Y25.00 E2.720 F1500
G1 X35.00 Y30.00 E2.740 F1500
G1 X35.00 Y35.00 E2.760 F1500
G1 X35.00 Y40.00 E2.780 F1500
G1 X35.00 Y45.00 E2.800 F1500
G1 X40.00 Y25.00 E2.820 F1500
G1 X40.00 Y30.00 E2.840 F1500
G1 X40.00 Y35.00 E2.860 F1500
G1 X40.00 Y40.00 E2.880 F1500
G1 X40.00 Y45.00 E2.900 F1500
G1 X45.00 Y25.00 E2.920 F1500
G1 X45.00 Y30.00 E2.940 F1500
G1 X45.00 Y35.00 E2.960 F1500
G1 X45.00 Y40.00 E2.980 F1500
G1 X45.00 Y45.00 E3.000 F1500
M104 S0 ; Turn off extruder
M140 S0 ; Turn off bed
G28 X0 Y0 ; Home X/Y
M84 ; Disable motors
