; FLAVOR:RepRap
; MINX:10
; MINY:10
; MINZ:0
; MAXX:50
; MAXY:50
; MAXZ:20
; Generated by Medical AI Zirconia Optimizer (Z.ai)
M104 S210 ; Set nozzle temp
M140 S60  ; Set bed temp
G28 ; Home all axes
G1 Z5 F5000 ; Lift nozzle
M109 S210 ; Wait for nozzle temp
G92 E0 ; Reset extruder
G1 F200 E3 ; Prime extruder
G92 E0
; 3D Bioprinted Living Tissue Scaffold (Porous Lattice)
G1 Z0.00 F1200
G1 X10 Y10 F3000
G1 X30 Y10 E0.150 F800
G1 X10 Y13 F3000
G1 X30 Y13 E0.300 F800
G1 X10 Y16 F3000
G1 X30 Y16 E0.450 F800
G1 X10 Y19 F3000
G1 X30 Y19 E0.600 F800
G1 X10 Y22 F3000
G1 X30 Y22 E0.750 F800
G1 X10 Y25 F3000
G1 X30 Y25 E0.900 F800
G1 X10 Y28 F3000
G1 X30 Y28 E1.050 F800
G1 Z0.40 F1200
G1 X10 Y10 F3000
G1 X10 Y30 E1.200 F800
G1 X13 Y10 F3000
G1 X13 Y30 E1.350 F800
G1 X16 Y10 F3000
G1 X16 Y30 E1.500 F800
G1 X19 Y10 F3000
G1 X19 Y30 E1.650 F800
G1 X22 Y10 F3000
G1 X22 Y30 E1.800 F800
G1 X25 Y10 F3000
G1 X25 Y30 E1.950 F800
G1 X28 Y10 F3000
G1 X28 Y30 E2.100 F800
G1 Z0.80 F1200
G1 X10 Y10 F3000
G1 X30 Y10 E2.250 F800
G1 X10 Y13 F3000
G1 X30 Y13 E2.400 F800
G1 X10 Y16 F3000
G1 X30 Y16 E2.550 F800
G1 X10 Y19 F3000
G1 X30 Y19 E2.700 F800
G1 X10 Y22 F3000
G1 X30 Y22 E2.850 F800
G1 X10 Y25 F3000
G1 X30 Y25 E3.000 F800
G1 X10 Y28 F3000
G1 X30 Y28 E3.150 F800
G1 Z1.20 F1200
G1 X10 Y10 F3000
G1 X10 Y30 E3.300 F800
G1 X13 Y10 F3000
G1 X13 Y30 E3.450 F800
G1 X16 Y10 F3000
G1 X16 Y30 E3.600 F800
G1 X19 Y10 F3000
G1 X19 Y30 E3.750 F800
G1 X22 Y10 F3000
G1 X22 Y30 E3.900 F800
G1 X25 Y10 F3000
G1 X25 Y30 E4.050 F800
G1 X28 Y10 F3000
G1 X28 Y30 E4.200 F800
G1 Z1.60 F1200
G1 X10 Y10 F3000
G1 X30 Y10 E4.350 F800
G1 X10 Y13 F3000
G1 X30 Y13 E4.500 F800
G1 X10 Y16 F3000
G1 X30 Y16 E4.650 F800
G1 X10 Y19 F3000
G1 X30 Y19 E4.800 F800
G1 X10 Y22 F3000
G1 X30 Y22 E4.950 F800
G1 X10 Y25 F3000
G1 X30 Y25 E5.100 F800
G1 X10 Y28 F3000
G1 X30 Y28 E5.250 F800
G1 Z2.00 F1200
G1 X10 Y10 F3000
G1 X10 Y30 E5.400 F800
G1 X13 Y10 F3000
G1 X13 Y30 E5.550 F800
G1 X16 Y10 F3000
G1 X16 Y30 E5.700 F800
G1 X19 Y10 F3000
G1 X19 Y30 E5.850 F800
G1 X22 Y10 F3000
G1 X22 Y30 E6.000 F800
G1 X25 Y10 F3000
G1 X25 Y30 E6.150 F800
G1 X28 Y10 F3000
G1 X28 Y30 E6.300 F800
G1 Z2.40 F1200
G1 X10 Y10 F3000
G1 X30 Y10 E6.450 F800
G1 X10 Y13 F3000
G1 X30 Y13 E6.600 F800
G1 X10 Y16 F3000
G1 X30 Y16 E6.750 F800
G1 X10 Y19 F3000
G1 X30 Y19 E6.900 F800
G1 X10 Y22 F3000
G1 X30 Y22 E7.050 F800
G1 X10 Y25 F3000
G1 X30 Y25 E7.200 F800
G1 X10 Y28 F3000
G1 X30 Y28 E7.350 F800
G1 Z2.80 F1200
G1 X10 Y10 F3000
G1 X10 Y30 E7.500 F800
G1 X13 Y10 F3000
G1 X13 Y30 E7.650 F800
G1 X16 Y10 F3000
G1 X16 Y30 E7.800 F800
G1 X19 Y10 F3000
G1 X19 Y30 E7.950 F800
G1 X22 Y10 F3000
G1 X22 Y30 E8.100 F800
G1 X25 Y10 F3000
G1 X25 Y30 E8.250 F800
G1 X28 Y10 F3000
G1 X28 Y30 E8.400 F800
G1 Z3.20 F1200
G1 X10 Y10 F3000
G1 X30 Y10 E8.550 F800
G1 X10 Y13 F3000
G1 X30 Y13 E8.700 F800
G1 X10 Y16 F3000
G1 X30 Y16 E8.850 F800
G1 X10 Y19 F3000
G1 X30 Y19 E9.000 F800
G1 X10 Y22 F3000
G1 X30 Y22 E9.150 F800
G1 X10 Y25 F3000
G1 X30 Y25 E9.300 F800
G1 X10 Y28 F3000
G1 X30 Y28 E9.450 F800
G1 Z3.60 F1200
G1 X10 Y10 F3000
G1 X10 Y30 E9.600 F800
G1 X13 Y10 F3000
G1 X13 Y30 E9.750 F800
G1 X16 Y10 F3000
G1 X16 Y30 E9.900 F800
G1 X19 Y10 F3000
G1 X19 Y30 E10.050 F800
G1 X22 Y10 F3000
G1 X22 Y30 E10.200 F800
G1 X25 Y10 F3000
G1 X25 Y30 E10.350 F800
G1 X28 Y10 F3000
G1 X28 Y30 E10.500 F800
G1 Z4.00 F1200
G1 X10 Y10 F3000
G1 X30 Y10 E10.650 F800
G1 X10 Y13 F3000
G1 X30 Y13 E10.800 F800
G1 X10 Y16 F3000
G1 X30 Y16 E10.950 F800
G1 X10 Y19 F3000
G1 X30 Y19 E11.100 F800
G1 X10 Y22 F3000
G1 X30 Y22 E11.250 F800
G1 X10 Y25 F3000
G1 X30 Y25 E11.400 F800
G1 X10 Y28 F3000
G1 X30 Y28 E11.550 F800
G1 Z4.40 F1200
G1 X10 Y10 F3000
G1 X10 Y30 E11.700 F800
G1 X13 Y10 F3000
G1 X13 Y30 E11.850 F800
G1 X16 Y10 F3000
G1 X16 Y30 E12.000 F800
G1 X19 Y10 F3000
G1 X19 Y30 E12.150 F800
G1 X22 Y10 F3000
G1 X22 Y30 E12.300 F800
G1 X25 Y10 F3000
G1 X25 Y30 E12.450 F800
G1 X28 Y10 F3000
G1 X28 Y30 E12.600 F800
G1 Z4.80 F1200
G1 X10 Y10 F3000
G1 X30 Y10 E12.750 F800
G1 X10 Y13 F3000
G1 X30 Y13 E12.900 F800
G1 X10 Y16 F3000
G1 X30 Y16 E13.050 F800
G1 X10 Y19 F3000
G1 X30 Y19 E13.200 F800
G1 X10 Y22 F3000
G1 X30 Y22 E13.350 F800
G1 X10 Y25 F3000
G1 X30 Y25 E13.500 F800
G1 X10 Y28 F3000
G1 X30 Y28 E13.650 F800
G1 Z5.20 F1200
G1 X10 Y10 F3000
G1 X10 Y30 E13.800 F800
G1 X13 Y10 F3000
G1 X13 Y30 E13.950 F800
G1 X16 Y10 F3000
G1 X16 Y30 E14.100 F800
G1 X19 Y10 F3000
G1 X19 Y30 E14.250 F800
G1 X22 Y10 F3000
G1 X22 Y30 E14.400 F800
G1 X25 Y10 F3000
G1 X25 Y30 E14.550 F800
G1 X28 Y10 F3000
G1 X28 Y30 E14.700 F800
G1 Z5.60 F1200
G1 X10 Y10 F3000
G1 X30 Y10 E14.850 F800
G1 X10 Y13 F3000
G1 X30 Y13 E15.000 F800
G1 X10 Y16 F3000
G1 X30 Y16 E15.150 F800
G1 X10 Y19 F3000
G1 X30 Y19 E15.300 F800
G1 X10 Y22 F3000
G1 X30 Y22 E15.450 F800
G1 X10 Y25 F3000
G1 X30 Y25 E15.600 F800
G1 X10 Y28 F3000
G1 X30 Y28 E15.750 F800
G1 Z6.00 F1200
G1 X10 Y10 F3000
G1 X10 Y30 E15.900 F800
G1 X13 Y10 F3000
G1 X13 Y30 E16.050 F800
G1 X16 Y10 F3000
G1 X16 Y30 E16.200 F800
G1 X19 Y10 F3000
G1 X19 Y30 E16.350 F800
G1 X22 Y10 F3000
G1 X22 Y30 E16.500 F800
G1 X25 Y10 F3000
G1 X25 Y30 E16.650 F800
G1 X28 Y10 F3000
G1 X28 Y30 E16.800 F800
G1 Z6.40 F1200
G1 X10 Y10 F3000
G1 X30 Y10 E16.950 F800
G1 X10 Y13 F3000
G1 X30 Y13 E17.100 F800
G1 X10 Y16 F3000
G1 X30 Y16 E17.250 F800
G1 X10 Y19 F3000
G1 X30 Y19 E17.400 F800
G1 X10 Y22 F3000
G1 X30 Y22 E17.550 F800
G1 X10 Y25 F3000
G1 X30 Y25 E17.700 F800
G1 X10 Y28 F3000
G1 X30 Y28 E17.850 F800
G1 Z6.80 F1200
G1 X10 Y10 F3000
G1 X10 Y30 E18.000 F800
G1 X13 Y10 F3000
G1 X13 Y30 E18.150 F800
G1 X16 Y10 F3000
G1 X16 Y30 E18.300 F800
G1 X19 Y10 F3000
G1 X19 Y30 E18.450 F800
G1 X22 Y10 F3000
G1 X22 Y30 E18.600 F800
G1 X25 Y10 F3000
G1 X25 Y30 E18.750 F800
G1 X28 Y10 F3000
G1 X28 Y30 E18.900 F800
G1 Z7.20 F1200
G1 X10 Y10 F3000
G1 X30 Y10 E19.050 F800
G1 X10 Y13 F3000
G1 X30 Y13 E19.200 F800
G1 X10 Y16 F3000
G1 X30 Y16 E19.350 F800
G1 X10 Y19 F3000
G1 X30 Y19 E19.500 F800
G1 X10 Y22 F3000
G1 X30 Y22 E19.650 F800
G1 X10 Y25 F3000
G1 X30 Y25 E19.800 F800
G1 X10 Y28 F3000
G1 X30 Y28 E19.950 F800
G1 Z7.60 F1200
G1 X10 Y10 F3000
G1 X10 Y30 E20.100 F800
G1 X13 Y10 F3000
G1 X13 Y30 E20.250 F800
G1 X16 Y10 F3000
G1 X16 Y30 E20.400 F800
G1 X19 Y10 F3000
G1 X19 Y30 E20.550 F800
G1 X22 Y10 F3000
G1 X22 Y30 E20.700 F800
G1 X25 Y10 F3000
G1 X25 Y30 E20.850 F800
G1 X28 Y10 F3000
G1 X28 Y30 E21.000 F800
M104 S0 ; Turn off extruder
M140 S0 ; Turn off bed
G28 X0 Y0 ; Home X/Y
M84 ; Disable motors
