; FLAVOR:RepRap
; MINX:10
; MINY:10
; MINZ:0
; MAXX:50
; MAXY:50
; MAXZ:20
; Generated by Medical AI Zirconia Optimizer (Z.ai)
M104 S210 ; Set nozzle temp
M140 S60  ; Set bed temp
G28 ; Home all axes
G1 Z5 F5000 ; Lift nozzle
M109 S210 ; Wait for nozzle temp
G92 E0 ; Reset extruder
G1 F200 E3 ; Prime extruder
G92 E0
; Standard World Implant - 100% Uniform Density
G1 Z0.00 F1200
G1 X10 Y10.00 F3000
G1 X30 Y10.00 E0.500 F1500
G1 X10 Y11.00 F3000
G1 X30 Y11.00 E1.000 F1500
G1 X10 Y12.00 F3000
G1 X30 Y12.00 E1.500 F1500
G1 X10 Y13.00 F3000
G1 X30 Y13.00 E2.000 F1500
G1 X10 Y14.00 F3000
G1 X30 Y14.00 E2.500 F1500
G1 X10 Y15.00 F3000
G1 X30 Y15.00 E3.000 F1500
G1 X10 Y16.00 F3000
G1 X30 Y16.00 E3.500 F1500
G1 X10 Y17.00 F3000
G1 X30 Y17.00 E4.000 F1500
G1 X10 Y18.00 F3000
G1 X30 Y18.00 E4.500 F1500
G1 X10 Y19.00 F3000
G1 X30 Y19.00 E5.000 F1500
G1 X10 Y20.00 F3000
G1 X30 Y20.00 E5.500 F1500
G1 X10 Y21.00 F3000
G1 X30 Y21.00 E6.000 F1500
G1 X10 Y22.00 F3000
G1 X30 Y22.00 E6.500 F1500
G1 X10 Y23.00 F3000
G1 X30 Y23.00 E7.000 F1500
G1 X10 Y24.00 F3000
G1 X30 Y24.00 E7.500 F1500
G1 X10 Y25.00 F3000
G1 X30 Y25.00 E8.000 F1500
G1 X10 Y26.00 F3000
G1 X30 Y26.00 E8.500 F1500
G1 X10 Y27.00 F3000
G1 X30 Y27.00 E9.000 F1500
G1 X10 Y28.00 F3000
G1 X30 Y28.00 E9.500 F1500
G1 X10 Y29.00 F3000
G1 X30 Y29.00 E10.000 F1500
G1 Z0.20 F1200
G1 X10 Y10.00 F3000
G1 X30 Y10.00 E10.500 F1500
G1 X10 Y11.00 F3000
G1 X30 Y11.00 E11.000 F1500
G1 X10 Y12.00 F3000
G1 X30 Y12.00 E11.500 F1500
G1 X10 Y13.00 F3000
G1 X30 Y13.00 E12.000 F1500
G1 X10 Y14.00 F3000
G1 X30 Y14.00 E12.500 F1500
G1 X10 Y15.00 F3000
G1 X30 Y15.00 E13.000 F1500
G1 X10 Y16.00 F3000
G1 X30 Y16.00 E13.500 F1500
G1 X10 Y17.00 F3000
G1 X30 Y17.00 E14.000 F1500
G1 X10 Y18.00 F3000
G1 X30 Y18.00 E14.500 F1500
G1 X10 Y19.00 F3000
G1 X30 Y19.00 E15.000 F1500
G1 X10 Y20.00 F3000
G1 X30 Y20.00 E15.500 F1500
G1 X10 Y21.00 F3000
G1 X30 Y21.00 E16.000 F1500
G1 X10 Y22.00 F3000
G1 X30 Y22.00 E16.500 F1500
G1 X10 Y23.00 F3000
G1 X30 Y23.00 E17.000 F1500
G1 X10 Y24.00 F3000
G1 X30 Y24.00 E17.500 F1500
G1 X10 Y25.00 F3000
G1 X30 Y25.00 E18.000 F1500
G1 X10 Y26.00 F3000
G1 X30 Y26.00 E18.500 F1500
G1 X10 Y27.00 F3000
G1 X30 Y27.00 E19.000 F1500
G1 X10 Y28.00 F3000
G1 X30 Y28.00 E19.500 F1500
G1 X10 Y29.00 F3000
G1 X30 Y29.00 E20.000 F1500
G1 Z0.40 F1200
G1 X10 Y10.00 F3000
G1 X30 Y10.00 E20.500 F1500
G1 X10 Y11.00 F3000
G1 X30 Y11.00 E21.000 F1500
G1 X10 Y12.00 F3000
G1 X30 Y12.00 E21.500 F1500
G1 X10 Y13.00 F3000
G1 X30 Y13.00 E22.000 F1500
G1 X10 Y14.00 F3000
G1 X30 Y14.00 E22.500 F1500
G1 X10 Y15.00 F3000
G1 X30 Y15.00 E23.000 F1500
G1 X10 Y16.00 F3000
G1 X30 Y16.00 E23.500 F1500
G1 X10 Y17.00 F3000
G1 X30 Y17.00 E24.000 F1500
G1 X10 Y18.00 F3000
G1 X30 Y18.00 E24.500 F1500
G1 X10 Y19.00 F3000
G1 X30 Y19.00 E25.000 F1500
G1 X10 Y20.00 F3000
G1 X30 Y20.00 E25.500 F1500
G1 X10 Y21.00 F3000
G1 X30 Y21.00 E26.000 F1500
G1 X10 Y22.00 F3000
G1 X30 Y22.00 E26.500 F1500
G1 X10 Y23.00 F3000
G1 X30 Y23.00 E27.000 F1500
G1 X10 Y24.00 F3000
G1 X30 Y24.00 E27.500 F1500
G1 X10 Y25.00 F3000
G1 X30 Y25.00 E28.000 F1500
G1 X10 Y26.00 F3000
G1 X30 Y26.00 E28.500 F1500
G1 X10 Y27.00 F3000
G1 X30 Y27.00 E29.000 F1500
G1 X10 Y28.00 F3000
G1 X30 Y28.00 E29.500 F1500
G1 X10 Y29.00 F3000
G1 X30 Y29.00 E30.000 F1500
G1 Z0.60 F1200
G1 X10 Y10.00 F3000
G1 X30 Y10.00 E30.500 F1500
G1 X10 Y11.00 F3000
G1 X30 Y11.00 E31.000 F1500
G1 X10 Y12.00 F3000
G1 X30 Y12.00 E31.500 F1500
G1 X10 Y13.00 F3000
G1 X30 Y13.00 E32.000 F1500
G1 X10 Y14.00 F3000
G1 X30 Y14.00 E32.500 F1500
G1 X10 Y15.00 F3000
G1 X30 Y15.00 E33.000 F1500
G1 X10 Y16.00 F3000
G1 X30 Y16.00 E33.500 F1500
G1 X10 Y17.00 F3000
G1 X30 Y17.00 E34.000 F1500
G1 X10 Y18.00 F3000
G1 X30 Y18.00 E34.500 F1500
G1 X10 Y19.00 F3000
G1 X30 Y19.00 E35.000 F1500
G1 X10 Y20.00 F3000
G1 X30 Y20.00 E35.500 F1500
G1 X10 Y21.00 F3000
G1 X30 Y21.00 E36.000 F1500
G1 X10 Y22.00 F3000
G1 X30 Y22.00 E36.500 F1500
G1 X10 Y23.00 F3000
G1 X30 Y23.00 E37.000 F1500
G1 X10 Y24.00 F3000
G1 X30 Y24.00 E37.500 F1500
G1 X10 Y25.00 F3000
G1 X30 Y25.00 E38.000 F1500
G1 X10 Y26.00 F3000
G1 X30 Y26.00 E38.500 F1500
G1 X10 Y27.00 F3000
G1 X30 Y27.00 E39.000 F1500
G1 X10 Y28.00 F3000
G1 X30 Y28.00 E39.500 F1500
G1 X10 Y29.00 F3000
G1 X30 Y29.00 E40.000 F1500
G1 Z0.80 F1200
G1 X10 Y10.00 F3000
G1 X30 Y10.00 E40.500 F1500
G1 X10 Y11.00 F3000
G1 X30 Y11.00 E41.000 F1500
G1 X10 Y12.00 F3000
G1 X30 Y12.00 E41.500 F1500
G1 X10 Y13.00 F3000
G1 X30 Y13.00 E42.000 F1500
G1 X10 Y14.00 F3000
G1 X30 Y14.00 E42.500 F1500
G1 X10 Y15.00 F3000
G1 X30 Y15.00 E43.000 F1500
G1 X10 Y16.00 F3000
G1 X30 Y16.00 E43.500 F1500
G1 X10 Y17.00 F3000
G1 X30 Y17.00 E44.000 F1500
G1 X10 Y18.00 F3000
G1 X30 Y18.00 E44.500 F1500
G1 X10 Y19.00 F3000
G1 X30 Y19.00 E45.000 F1500
G1 X10 Y20.00 F3000
G1 X30 Y20.00 E45.500 F1500
G1 X10 Y21.00 F3000
G1 X30 Y21.00 E46.000 F1500
G1 X10 Y22.00 F3000
G1 X30 Y22.00 E46.500 F1500
G1 X10 Y23.00 F3000
G1 X30 Y23.00 E47.000 F1500
G1 X10 Y24.00 F3000
G1 X30 Y24.00 E47.500 F1500
G1 X10 Y25.00 F3000
G1 X30 Y25.00 E48.000 F1500
G1 X10 Y26.00 F3000
G1 X30 Y26.00 E48.500 F1500
G1 X10 Y27.00 F3000
G1 X30 Y27.00 E49.000 F1500
G1 X10 Y28.00 F3000
G1 X30 Y28.00 E49.500 F1500
G1 X10 Y29.00 F3000
G1 X30 Y29.00 E50.000 F1500
G1 Z1.00 F1200
G1 X10 Y10.00 F3000
G1 X30 Y10.00 E50.500 F1500
G1 X10 Y11.00 F3000
G1 X30 Y11.00 E51.000 F1500
G1 X10 Y12.00 F3000
G1 X30 Y12.00 E51.500 F1500
G1 X10 Y13.00 F3000
G1 X30 Y13.00 E52.000 F1500
G1 X10 Y14.00 F3000
G1 X30 Y14.00 E52.500 F1500
G1 X10 Y15.00 F3000
G1 X30 Y15.00 E53.000 F1500
G1 X10 Y16.00 F3000
G1 X30 Y16.00 E53.500 F1500
G1 X10 Y17.00 F3000
G1 X30 Y17.00 E54.000 F1500
G1 X10 Y18.00 F3000
G1 X30 Y18.00 E54.500 F1500
G1 X10 Y19.00 F3000
G1 X30 Y19.00 E55.000 F1500
G1 X10 Y20.00 F3000
G1 X30 Y20.00 E55.500 F1500
G1 X10 Y21.00 F3000
G1 X30 Y21.00 E56.000 F1500
G1 X10 Y22.00 F3000
G1 X30 Y22.00 E56.500 F1500
G1 X10 Y23.00 F3000
G1 X30 Y23.00 E57.000 F1500
G1 X10 Y24.00 F3000
G1 X30 Y24.00 E57.500 F1500
G1 X10 Y25.00 F3000
G1 X30 Y25.00 E58.000 F1500
G1 X10 Y26.00 F3000
G1 X30 Y26.00 E58.500 F1500
G1 X10 Y27.00 F3000
G1 X30 Y27.00 E59.000 F1500
G1 X10 Y28.00 F3000
G1 X30 Y28.00 E59.500 F1500
G1 X10 Y29.00 F3000
G1 X30 Y29.00 E60.000 F1500
G1 Z1.20 F1200
G1 X10 Y10.00 F3000
G1 X30 Y10.00 E60.500 F1500
G1 X10 Y11.00 F3000
G1 X30 Y11.00 E61.000 F1500
G1 X10 Y12.00 F3000
G1 X30 Y12.00 E61.500 F1500
G1 X10 Y13.00 F3000
G1 X30 Y13.00 E62.000 F1500
G1 X10 Y14.00 F3000
G1 X30 Y14.00 E62.500 F1500
G1 X10 Y15.00 F3000
G1 X30 Y15.00 E63.000 F1500
G1 X10 Y16.00 F3000
G1 X30 Y16.00 E63.500 F1500
G1 X10 Y17.00 F3000
G1 X30 Y17.00 E64.000 F1500
G1 X10 Y18.00 F3000
G1 X30 Y18.00 E64.500 F1500
G1 X10 Y19.00 F3000
G1 X30 Y19.00 E65.000 F1500
G1 X10 Y20.00 F3000
G1 X30 Y20.00 E65.500 F1500
G1 X10 Y21.00 F3000
G1 X30 Y21.00 E66.000 F1500
G1 X10 Y22.00 F3000
G1 X30 Y22.00 E66.500 F1500
G1 X10 Y23.00 F3000
G1 X30 Y23.00 E67.000 F1500
G1 X10 Y24.00 F3000
G1 X30 Y24.00 E67.500 F1500
G1 X10 Y25.00 F3000
G1 X30 Y25.00 E68.000 F1500
G1 X10 Y26.00 F3000
G1 X30 Y26.00 E68.500 F1500
G1 X10 Y27.00 F3000
G1 X30 Y27.00 E69.000 F1500
G1 X10 Y28.00 F3000
G1 X30 Y28.00 E69.500 F1500
G1 X10 Y29.00 F3000
G1 X30 Y29.00 E70.000 F1500
G1 Z1.40 F1200
G1 X10 Y10.00 F3000
G1 X30 Y10.00 E70.500 F1500
G1 X10 Y11.00 F3000
G1 X30 Y11.00 E71.000 F1500
G1 X10 Y12.00 F3000
G1 X30 Y12.00 E71.500 F1500
G1 X10 Y13.00 F3000
G1 X30 Y13.00 E72.000 F1500
G1 X10 Y14.00 F3000
G1 X30 Y14.00 E72.500 F1500
G1 X10 Y15.00 F3000
G1 X30 Y15.00 E73.000 F1500
G1 X10 Y16.00 F3000
G1 X30 Y16.00 E73.500 F1500
G1 X10 Y17.00 F3000
G1 X30 Y17.00 E74.000 F1500
G1 X10 Y18.00 F3000
G1 X30 Y18.00 E74.500 F1500
G1 X10 Y19.00 F3000
G1 X30 Y19.00 E75.000 F1500
G1 X10 Y20.00 F3000
G1 X30 Y20.00 E75.500 F1500
G1 X10 Y21.00 F3000
G1 X30 Y21.00 E76.000 F1500
G1 X10 Y22.00 F3000
G1 X30 Y22.00 E76.500 F1500
G1 X10 Y23.00 F3000
G1 X30 Y23.00 E77.000 F1500
G1 X10 Y24.00 F3000
G1 X30 Y24.00 E77.500 F1500
G1 X10 Y25.00 F3000
G1 X30 Y25.00 E78.000 F1500
G1 X10 Y26.00 F3000
G1 X30 Y26.00 E78.500 F1500
G1 X10 Y27.00 F3000
G1 X30 Y27.00 E79.000 F1500
G1 X10 Y28.00 F3000
G1 X30 Y28.00 E79.500 F1500
G1 X10 Y29.00 F3000
G1 X30 Y29.00 E80.000 F1500
G1 Z1.60 F1200
G1 X10 Y10.00 F3000
G1 X30 Y10.00 E80.500 F1500
G1 X10 Y11.00 F3000
G1 X30 Y11.00 E81.000 F1500
G1 X10 Y12.00 F3000
G1 X30 Y12.00 E81.500 F1500
G1 X10 Y13.00 F3000
G1 X30 Y13.00 E82.000 F1500
G1 X10 Y14.00 F3000
G1 X30 Y14.00 E82.500 F1500
G1 X10 Y15.00 F3000
G1 X30 Y15.00 E83.000 F1500
G1 X10 Y16.00 F3000
G1 X30 Y16.00 E83.500 F1500
G1 X10 Y17.00 F3000
G1 X30 Y17.00 E84.000 F1500
G1 X10 Y18.00 F3000
G1 X30 Y18.00 E84.500 F1500
G1 X10 Y19.00 F3000
G1 X30 Y19.00 E85.000 F1500
G1 X10 Y20.00 F3000
G1 X30 Y20.00 E85.500 F1500
G1 X10 Y21.00 F3000
G1 X30 Y21.00 E86.000 F1500
G1 X10 Y22.00 F3000
G1 X30 Y22.00 E86.500 F1500
G1 X10 Y23.00 F3000
G1 X30 Y23.00 E87.000 F1500
G1 X10 Y24.00 F3000
G1 X30 Y24.00 E87.500 F1500
G1 X10 Y25.00 F3000
G1 X30 Y25.00 E88.000 F1500
G1 X10 Y26.00 F3000
G1 X30 Y26.00 E88.500 F1500
G1 X10 Y27.00 F3000
G1 X30 Y27.00 E89.000 F1500
G1 X10 Y28.00 F3000
G1 X30 Y28.00 E89.500 F1500
G1 X10 Y29.00 F3000
G1 X30 Y29.00 E90.000 F1500
G1 Z1.80 F1200
G1 X10 Y10.00 F3000
G1 X30 Y10.00 E90.500 F1500
G1 X10 Y11.00 F3000
G1 X30 Y11.00 E91.000 F1500
G1 X10 Y12.00 F3000
G1 X30 Y12.00 E91.500 F1500
G1 X10 Y13.00 F3000
G1 X30 Y13.00 E92.000 F1500
G1 X10 Y14.00 F3000
G1 X30 Y14.00 E92.500 F1500
G1 X10 Y15.00 F3000
G1 X30 Y15.00 E93.000 F1500
G1 X10 Y16.00 F3000
G1 X30 Y16.00 E93.500 F1500
G1 X10 Y17.00 F3000
G1 X30 Y17.00 E94.000 F1500
G1 X10 Y18.00 F3000
G1 X30 Y18.00 E94.500 F1500
G1 X10 Y19.00 F3000
G1 X30 Y19.00 E95.000 F1500
G1 X10 Y20.00 F3000
G1 X30 Y20.00 E95.500 F1500
G1 X10 Y21.00 F3000
G1 X30 Y21.00 E96.000 F1500
G1 X10 Y22.00 F3000
G1 X30 Y22.00 E96.500 F1500
G1 X10 Y23.00 F3000
G1 X30 Y23.00 E97.000 F1500
G1 X10 Y24.00 F3000
G1 X30 Y24.00 E97.500 F1500
G1 X10 Y25.00 F3000
G1 X30 Y25.00 E98.000 F1500
G1 X10 Y26.00 F3000
G1 X30 Y26.00 E98.500 F1500
G1 X10 Y27.00 F3000
G1 X30 Y27.00 E99.000 F1500
G1 X10 Y28.00 F3000
G1 X30 Y28.00 E99.500 F1500
G1 X10 Y29.00 F3000
G1 X30 Y29.00 E100.000 F1500
G1 Z2.00 F1200
G1 X10 Y10.00 F3000
G1 X30 Y10.00 E100.500 F1500
G1 X10 Y11.00 F3000
G1 X30 Y11.00 E101.000 F1500
G1 X10 Y12.00 F3000
G1 X30 Y12.00 E101.500 F1500
G1 X10 Y13.00 F3000
G1 X30 Y13.00 E102.000 F1500
G1 X10 Y14.00 F3000
G1 X30 Y14.00 E102.500 F1500
G1 X10 Y15.00 F3000
G1 X30 Y15.00 E103.000 F1500
G1 X10 Y16.00 F3000
G1 X30 Y16.00 E103.500 F1500
G1 X10 Y17.00 F3000
G1 X30 Y17.00 E104.000 F1500
G1 X10 Y18.00 F3000
G1 X30 Y18.00 E104.500 F1500
G1 X10 Y19.00 F3000
G1 X30 Y19.00 E105.000 F1500
G1 X10 Y20.00 F3000
G1 X30 Y20.00 E105.500 F1500
G1 X10 Y21.00 F3000
G1 X30 Y21.00 E106.000 F1500
G1 X10 Y22.00 F3000
G1 X30 Y22.00 E106.500 F1500
G1 X10 Y23.00 F3000
G1 X30 Y23.00 E107.000 F1500
G1 X10 Y24.00 F3000
G1 X30 Y24.00 E107.500 F1500
G1 X10 Y25.00 F3000
G1 X30 Y25.00 E108.000 F1500
G1 X10 Y26.00 F3000
G1 X30 Y26.00 E108.500 F1500
G1 X10 Y27.00 F3000
G1 X30 Y27.00 E109.000 F1500
G1 X10 Y28.00 F3000
G1 X30 Y28.00 E109.500 F1500
G1 X10 Y29.00 F3000
G1 X30 Y29.00 E110.000 F1500
G1 Z2.20 F1200
G1 X10 Y10.00 F3000
G1 X30 Y10.00 E110.500 F1500
G1 X10 Y11.00 F3000
G1 X30 Y11.00 E111.000 F1500
G1 X10 Y12.00 F3000
G1 X30 Y12.00 E111.500 F1500
G1 X10 Y13.00 F3000
G1 X30 Y13.00 E112.000 F1500
G1 X10 Y14.00 F3000
G1 X30 Y14.00 E112.500 F1500
G1 X10 Y15.00 F3000
G1 X30 Y15.00 E113.000 F1500
G1 X10 Y16.00 F3000
G1 X30 Y16.00 E113.500 F1500
G1 X10 Y17.00 F3000
G1 X30 Y17.00 E114.000 F1500
G1 X10 Y18.00 F3000
G1 X30 Y18.00 E114.500 F1500
G1 X10 Y19.00 F3000
G1 X30 Y19.00 E115.000 F1500
G1 X10 Y20.00 F3000
G1 X30 Y20.00 E115.500 F1500
G1 X10 Y21.00 F3000
G1 X30 Y21.00 E116.000 F1500
G1 X10 Y22.00 F3000
G1 X30 Y22.00 E116.500 F1500
G1 X10 Y23.00 F3000
G1 X30 Y23.00 E117.000 F1500
G1 X10 Y24.00 F3000
G1 X30 Y24.00 E117.500 F1500
G1 X10 Y25.00 F3000
G1 X30 Y25.00 E118.000 F1500
G1 X10 Y26.00 F3000
G1 X30 Y26.00 E118.500 F1500
G1 X10 Y27.00 F3000
G1 X30 Y27.00 E119.000 F1500
G1 X10 Y28.00 F3000
G1 X30 Y28.00 E119.500 F1500
G1 X10 Y29.00 F3000
G1 X30 Y29.00 E120.000 F1500
G1 Z2.40 F1200
G1 X10 Y10.00 F3000
G1 X30 Y10.00 E120.500 F1500
G1 X10 Y11.00 F3000
G1 X30 Y11.00 E121.000 F1500
G1 X10 Y12.00 F3000
G1 X30 Y12.00 E121.500 F1500
G1 X10 Y13.00 F3000
G1 X30 Y13.00 E122.000 F1500
G1 X10 Y14.00 F3000
G1 X30 Y14.00 E122.500 F1500
G1 X10 Y15.00 F3000
G1 X30 Y15.00 E123.000 F1500
G1 X10 Y16.00 F3000
G1 X30 Y16.00 E123.500 F1500
G1 X10 Y17.00 F3000
G1 X30 Y17.00 E124.000 F1500
G1 X10 Y18.00 F3000
G1 X30 Y18.00 E124.500 F1500
G1 X10 Y19.00 F3000
G1 X30 Y19.00 E125.000 F1500
G1 X10 Y20.00 F3000
G1 X30 Y20.00 E125.500 F1500
G1 X10 Y21.00 F3000
G1 X30 Y21.00 E126.000 F1500
G1 X10 Y22.00 F3000
G1 X30 Y22.00 E126.500 F1500
G1 X10 Y23.00 F3000
G1 X30 Y23.00 E127.000 F1500
G1 X10 Y24.00 F3000
G1 X30 Y24.00 E127.500 F1500
G1 X10 Y25.00 F3000
G1 X30 Y25.00 E128.000 F1500
G1 X10 Y26.00 F3000
G1 X30 Y26.00 E128.500 F1500
G1 X10 Y27.00 F3000
G1 X30 Y27.00 E129.000 F1500
G1 X10 Y28.00 F3000
G1 X30 Y28.00 E129.500 F1500
G1 X10 Y29.00 F3000
G1 X30 Y29.00 E130.000 F1500
G1 Z2.60 F1200
G1 X10 Y10.00 F3000
G1 X30 Y10.00 E130.500 F1500
G1 X10 Y11.00 F3000
G1 X30 Y11.00 E131.000 F1500
G1 X10 Y12.00 F3000
G1 X30 Y12.00 E131.500 F1500
G1 X10 Y13.00 F3000
G1 X30 Y13.00 E132.000 F1500
G1 X10 Y14.00 F3000
G1 X30 Y14.00 E132.500 F1500
G1 X10 Y15.00 F3000
G1 X30 Y15.00 E133.000 F1500
G1 X10 Y16.00 F3000
G1 X30 Y16.00 E133.500 F1500
G1 X10 Y17.00 F3000
G1 X30 Y17.00 E134.000 F1500
G1 X10 Y18.00 F3000
G1 X30 Y18.00 E134.500 F1500
G1 X10 Y19.00 F3000
G1 X30 Y19.00 E135.000 F1500
G1 X10 Y20.00 F3000
G1 X30 Y20.00 E135.500 F1500
G1 X10 Y21.00 F3000
G1 X30 Y21.00 E136.000 F1500
G1 X10 Y22.00 F3000
G1 X30 Y22.00 E136.500 F1500
G1 X10 Y23.00 F3000
G1 X30 Y23.00 E137.000 F1500
G1 X10 Y24.00 F3000
G1 X30 Y24.00 E137.500 F1500
G1 X10 Y25.00 F3000
G1 X30 Y25.00 E138.000 F1500
G1 X10 Y26.00 F3000
G1 X30 Y26.00 E138.500 F1500
G1 X10 Y27.00 F3000
G1 X30 Y27.00 E139.000 F1500
G1 X10 Y28.00 F3000
G1 X30 Y28.00 E139.500 F1500
G1 X10 Y29.00 F3000
G1 X30 Y29.00 E140.000 F1500
G1 Z2.80 F1200
G1 X10 Y10.00 F3000
G1 X30 Y10.00 E140.500 F1500
G1 X10 Y11.00 F3000
G1 X30 Y11.00 E141.000 F1500
G1 X10 Y12.00 F3000
G1 X30 Y12.00 E141.500 F1500
G1 X10 Y13.00 F3000
G1 X30 Y13.00 E142.000 F1500
G1 X10 Y14.00 F3000
G1 X30 Y14.00 E142.500 F1500
G1 X10 Y15.00 F3000
G1 X30 Y15.00 E143.000 F1500
G1 X10 Y16.00 F3000
G1 X30 Y16.00 E143.500 F1500
G1 X10 Y17.00 F3000
G1 X30 Y17.00 E144.000 F1500
G1 X10 Y18.00 F3000
G1 X30 Y18.00 E144.500 F1500
G1 X10 Y19.00 F3000
G1 X30 Y19.00 E145.000 F1500
G1 X10 Y20.00 F3000
G1 X30 Y20.00 E145.500 F1500
G1 X10 Y21.00 F3000
G1 X30 Y21.00 E146.000 F1500
G1 X10 Y22.00 F3000
G1 X30 Y22.00 E146.500 F1500
G1 X10 Y23.00 F3000
G1 X30 Y23.00 E147.000 F1500
G1 X10 Y24.00 F3000
G1 X30 Y24.00 E147.500 F1500
G1 X10 Y25.00 F3000
G1 X30 Y25.00 E148.000 F1500
G1 X10 Y26.00 F3000
G1 X30 Y26.00 E148.500 F1500
G1 X10 Y27.00 F3000
G1 X30 Y27.00 E149.000 F1500
G1 X10 Y28.00 F3000
G1 X30 Y28.00 E149.500 F1500
G1 X10 Y29.00 F3000
G1 X30 Y29.00 E150.000 F1500
G1 Z3.00 F1200
G1 X10 Y10.00 F3000
G1 X30 Y10.00 E150.500 F1500
G1 X10 Y11.00 F3000
G1 X30 Y11.00 E151.000 F1500
G1 X10 Y12.00 F3000
G1 X30 Y12.00 E151.500 F1500
G1 X10 Y13.00 F3000
G1 X30 Y13.00 E152.000 F1500
G1 X10 Y14.00 F3000
G1 X30 Y14.00 E152.500 F1500
G1 X10 Y15.00 F3000
G1 X30 Y15.00 E153.000 F1500
G1 X10 Y16.00 F3000
G1 X30 Y16.00 E153.500 F1500
G1 X10 Y17.00 F3000
G1 X30 Y17.00 E154.000 F1500
G1 X10 Y18.00 F3000
G1 X30 Y18.00 E154.500 F1500
G1 X10 Y19.00 F3000
G1 X30 Y19.00 E155.000 F1500
G1 X10 Y20.00 F3000
G1 X30 Y20.00 E155.500 F1500
G1 X10 Y21.00 F3000
G1 X30 Y21.00 E156.000 F1500
G1 X10 Y22.00 F3000
G1 X30 Y22.00 E156.500 F1500
G1 X10 Y23.00 F3000
G1 X30 Y23.00 E157.000 F1500
G1 X10 Y24.00 F3000
G1 X30 Y24.00 E157.500 F1500
G1 X10 Y25.00 F3000
G1 X30 Y25.00 E158.000 F1500
G1 X10 Y26.00 F3000
G1 X30 Y26.00 E158.500 F1500
G1 X10 Y27.00 F3000
G1 X30 Y27.00 E159.000 F1500
G1 X10 Y28.00 F3000
