; FLAVOR:RepRap
; MINX:10
; MINY:10
; MINZ:0
; MAXX:50
; MAXY:50
; MAXZ:20
; Generated by Medical AI Zirconia Optimizer (Z.ai)
M104 S210 ; Set nozzle temp
M140 S60  ; Set bed temp
G28 ; Home all axes
G1 Z5 F5000 ; Lift nozzle
M109 S210 ; Wait for nozzle temp
G92 E0 ; Reset extruder
G1 F200 E3 ; Prime extruder
G92 E0
; Stress-Informed Non-Planar (SINP) Slicing
; Aligning G-code toolpaths exactly with FEA principal stress lines
; Non-Planar Pass 1
G1 X10.00 Y15.00 Z5.00 E0.100 F2000
G1 X11.00 Y15.00 Z5.31 E0.200 F2000
G1 X12.00 Y15.00 Z5.62 E0.300 F2000
G1 X13.00 Y15.00 Z5.91 E0.400 F2000
G1 X14.00 Y15.00 Z6.18 E0.500 F2000
G1 X15.00 Y15.00 Z6.41 E0.600 F2000
G1 X16.00 Y15.00 Z6.62 E0.700 F2000
G1 X17.00 Y15.00 Z6.78 E0.800 F2000
G1 X18.00 Y15.00 Z6.90 E0.900 F2000
G1 X19.00 Y15.00 Z6.98 E1.000 F2000
G1 X20.00 Y15.00 Z7.00 E1.100 F2000
G1 X21.00 Y15.00 Z6.98 E1.200 F2000
G1 X22.00 Y15.00 Z6.90 E1.300 F2000
G1 X23.00 Y15.00 Z6.78 E1.400 F2000
G1 X24.00 Y15.00 Z6.62 E1.500 F2000
G1 X25.00 Y15.00 Z6.41 E1.600 F2000
G1 X26.00 Y15.00 Z6.18 E1.700 F2000
G1 X27.00 Y15.00 Z5.91 E1.800 F2000
G1 X28.00 Y15.00 Z5.62 E1.900 F2000
G1 X29.00 Y15.00 Z5.31 E2.000 F2000
; Non-Planar Pass 2
G1 X10.00 Y17.00 Z5.50 E2.100 F2000
G1 X11.00 Y17.00 Z5.81 E2.200 F2000
G1 X12.00 Y17.00 Z6.12 E2.300 F2000
G1 X13.00 Y17.00 Z6.41 E2.400 F2000
G1 X14.00 Y17.00 Z6.68 E2.500 F2000
G1 X15.00 Y17.00 Z6.91 E2.600 F2000
G1 X16.00 Y17.00 Z7.12 E2.700 F2000
G1 X17.00 Y17.00 Z7.28 E2.800 F2000
G1 X18.00 Y17.00 Z7.40 E2.900 F2000
G1 X19.00 Y17.00 Z7.48 E3.000 F2000
G1 X20.00 Y17.00 Z7.50 E3.100 F2000
G1 X21.00 Y17.00 Z7.48 E3.200 F2000
G1 X22.00 Y17.00 Z7.40 E3.300 F2000
G1 X23.00 Y17.00 Z7.28 E3.400 F2000
G1 X24.00 Y17.00 Z7.12 E3.500 F2000
G1 X25.00 Y17.00 Z6.91 E3.600 F2000
G1 X26.00 Y17.00 Z6.68 E3.700 F2000
G1 X27.00 Y17.00 Z6.41 E3.800 F2000
G1 X28.00 Y17.00 Z6.12 E3.900 F2000
G1 X29.00 Y17.00 Z5.81 E4.000 F2000
; Non-Planar Pass 3
G1 X10.00 Y19.00 Z6.00 E4.100 F2000
G1 X11.00 Y19.00 Z6.31 E4.200 F2000
G1 X12.00 Y19.00 Z6.62 E4.300 F2000
G1 X13.00 Y19.00 Z6.91 E4.400 F2000
G1 X14.00 Y19.00 Z7.18 E4.500 F2000
G1 X15.00 Y19.00 Z7.41 E4.600 F2000
G1 X16.00 Y19.00 Z7.62 E4.700 F2000
G1 X17.00 Y19.00 Z7.78 E4.800 F2000
G1 X18.00 Y19.00 Z7.90 E4.900 F2000
G1 X19.00 Y19.00 Z7.98 E5.000 F2000
G1 X20.00 Y19.00 Z8.00 E5.100 F2000
G1 X21.00 Y19.00 Z7.98 E5.200 F2000
G1 X22.00 Y19.00 Z7.90 E5.300 F2000
G1 X23.00 Y19.00 Z7.78 E5.400 F2000
G1 X24.00 Y19.00 Z7.62 E5.500 F2000
G1 X25.00 Y19.00 Z7.41 E5.600 F2000
G1 X26.00 Y19.00 Z7.18 E5.700 F2000
G1 X27.00 Y19.00 Z6.91 E5.800 F2000
G1 X28.00 Y19.00 Z6.62 E5.900 F2000
G1 X29.00 Y19.00 Z6.31 E6.000 F2000
; Non-Planar Pass 4
G1 X10.00 Y21.00 Z6.50 E6.100 F2000
G1 X11.00 Y21.00 Z6.81 E6.200 F2000
G1 X12.00 Y21.00 Z7.12 E6.300 F2000
G1 X13.00 Y21.00 Z7.41 E6.400 F2000
G1 X14.00 Y21.00 Z7.68 E6.500 F2000
G1 X15.00 Y21.00 Z7.91 E6.600 F2000
G1 X16.00 Y21.00 Z8.12 E6.700 F2000
G1 X17.00 Y21.00 Z8.28 E6.800 F2000
G1 X18.00 Y21.00 Z8.40 E6.900 F2000
G1 X19.00 Y21.00 Z8.48 E7.000 F2000
G1 X20.00 Y21.00 Z8.50 E7.100 F2000
G1 X21.00 Y21.00 Z8.48 E7.200 F2000
G1 X22.00 Y21.00 Z8.40 E7.300 F2000
G1 X23.00 Y21.00 Z8.28 E7.400 F2000
G1 X24.00 Y21.00 Z8.12 E7.500 F2000
G1 X25.00 Y21.00 Z7.91 E7.600 F2000
G1 X26.00 Y21.00 Z7.68 E7.700 F2000
G1 X27.00 Y21.00 Z7.41 E7.800 F2000
G1 X28.00 Y21.00 Z7.12 E7.900 F2000
G1 X29.00 Y21.00 Z6.81 E8.000 F2000
; Non-Planar Pass 5
G1 X10.00 Y23.00 Z7.00 E8.100 F2000
G1 X11.00 Y23.00 Z7.31 E8.200 F2000
G1 X12.00 Y23.00 Z7.62 E8.300 F2000
G1 X13.00 Y23.00 Z7.91 E8.400 F2000
G1 X14.00 Y23.00 Z8.18 E8.500 F2000
G1 X15.00 Y23.00 Z8.41 E8.600 F2000
G1 X16.00 Y23.00 Z8.62 E8.700 F2000
G1 X17.00 Y23.00 Z8.78 E8.800 F2000
G1 X18.00 Y23.00 Z8.90 E8.900 F2000
G1 X19.00 Y23.00 Z8.98 E9.000 F2000
G1 X20.00 Y23.00 Z9.00 E9.100 F2000
G1 X21.00 Y23.00 Z8.98 E9.200 F2000
G1 X22.00 Y23.00 Z8.90 E9.300 F2000
G1 X23.00 Y23.00 Z8.78 E9.400 F2000
G1 X24.00 Y23.00 Z8.62 E9.500 F2000
G1 X25.00 Y23.00 Z8.41 E9.600 F2000
G1 X26.00 Y23.00 Z8.18 E9.700 F2000
G1 X27.00 Y23.00 Z7.91 E9.800 F2000
G1 X28.00 Y23.00 Z7.62 E9.900 F2000
G1 X29.00 Y23.00 Z7.31 E10.000 F2000
; Non-Planar Pass 6
G1 X10.00 Y25.00 Z7.50 E10.100 F2000
G1 X11.00 Y25.00 Z7.81 E10.200 F2000
G1 X12.00 Y25.00 Z8.12 E10.300 F2000
G1 X13.00 Y25.00 Z8.41 E10.400 F2000
G1 X14.00 Y25.00 Z8.68 E10.500 F2000
G1 X15.00 Y25.00 Z8.91 E10.600 F2000
G1 X16.00 Y25.00 Z9.12 E10.700 F2000
G1 X17.00 Y25.00 Z9.28 E10.800 F2000
G1 X18.00 Y25.00 Z9.40 E10.900 F2000
G1 X19.00 Y25.00 Z9.48 E11.000 F2000
G1 X20.00 Y25.00 Z9.50 E11.100 F2000
G1 X21.00 Y25.00 Z9.48 E11.200 F2000
G1 X22.00 Y25.00 Z9.40 E11.300 F2000
G1 X23.00 Y25.00 Z9.28 E11.400 F2000
G1 X24.00 Y25.00 Z9.12 E11.500 F2000
G1 X25.00 Y25.00 Z8.91 E11.600 F2000
G1 X26.00 Y25.00 Z8.68 E11.700 F2000
G1 X27.00 Y25.00 Z8.41 E11.800 F2000
G1 X28.00 Y25.00 Z8.12 E11.900 F2000
G1 X29.00 Y25.00 Z7.81 E12.000 F2000
; Non-Planar Pass 7
G1 X10.00 Y27.00 Z8.00 E12.100 F2000
G1 X11.00 Y27.00 Z8.31 E12.200 F2000
G1 X12.00 Y27.00 Z8.62 E12.300 F2000
G1 X13.00 Y27.00 Z8.91 E12.400 F2000
G1 X14.00 Y27.00 Z9.18 E12.500 F2000
G1 X15.00 Y27.00 Z9.41 E12.600 F2000
G1 X16.00 Y27.00 Z9.62 E12.700 F2000
G1 X17.00 Y27.00 Z9.78 E12.800 F2000
G1 X18.00 Y27.00 Z9.90 E12.900 F2000
G1 X19.00 Y27.00 Z9.98 E13.000 F2000
G1 X20.00 Y27.00 Z10.00 E13.100 F2000
G1 X21.00 Y27.00 Z9.98 E13.200 F2000
G1 X22.00 Y27.00 Z9.90 E13.300 F2000
G1 X23.00 Y27.00 Z9.78 E13.400 F2000
G1 X24.00 Y27.00 Z9.62 E13.500 F2000
G1 X25.00 Y27.00 Z9.41 E13.600 F2000
G1 X26.00 Y27.00 Z9.18 E13.700 F2000
G1 X27.00 Y27.00 Z8.91 E13.800 F2000
G1 X28.00 Y27.00 Z8.62 E13.900 F2000
G1 X29.00 Y27.00 Z8.31 E14.000 F2000
; Non-Planar Pass 8
G1 X10.00 Y29.00 Z8.50 E14.100 F2000
G1 X11.00 Y29.00 Z8.81 E14.200 F2000
G1 X12.00 Y29.00 Z9.12 E14.300 F2000
G1 X13.00 Y29.00 Z9.41 E14.400 F2000
G1 X14.00 Y29.00 Z9.68 E14.500 F2000
G1 X15.00 Y29.00 Z9.91 E14.600 F2000
G1 X16.00 Y29.00 Z10.12 E14.700 F2000
G1 X17.00 Y29.00 Z10.28 E14.800 F2000
G1 X18.00 Y29.00 Z10.40 E14.900 F2000
G1 X19.00 Y29.00 Z10.48 E15.000 F2000
G1 X20.00 Y29.00 Z10.50 E15.100 F2000
G1 X21.00 Y29.00 Z10.48 E15.200 F2000
G1 X22.00 Y29.00 Z10.40 E15.300 F2000
G1 X23.00 Y29.00 Z10.28 E15.400 F2000
G1 X24.00 Y29.00 Z10.12 E15.500 F2000
G1 X25.00 Y29.00 Z9.91 E15.600 F2000
G1 X26.00 Y29.00 Z9.68 E15.700 F2000
G1 X27.00 Y29.00 Z9.41 E15.800 F2000
G1 X28.00 Y29.00 Z9.12 E15.900 F2000
G1 X29.00 Y29.00 Z8.81 E16.000 F2000
; Non-Planar Pass 9
G1 X10.00 Y31.00 Z9.00 E16.100 F2000
G1 X11.00 Y31.00 Z9.31 E16.200 F2000
G1 X12.00 Y31.00 Z9.62 E16.300 F2000
G1 X13.00 Y31.00 Z9.91 E16.400 F2000
G1 X14.00 Y31.00 Z10.18 E16.500 F2000
G1 X15.00 Y31.00 Z10.41 E16.600 F2000
G1 X16.00 Y31.00 Z10.62 E16.700 F2000
G1 X17.00 Y31.00 Z10.78 E16.800 F2000
G1 X18.00 Y31.00 Z10.90 E16.900 F2000
G1 X19.00 Y31.00 Z10.98 E17.000 F2000
G1 X20.00 Y31.00 Z11.00 E17.100 F2000
G1 X21.00 Y31.00 Z10.98 E17.200 F2000
G1 X22.00 Y31.00 Z10.90 E17.300 F2000
G1 X23.00 Y31.00 Z10.78 E17.400 F2000
G1 X24.00 Y31.00 Z10.62 E17.500 F2000
G1 X25.00 Y31.00 Z10.41 E17.600 F2000
G1 X26.00 Y31.00 Z10.18 E17.700 F2000
G1 X27.00 Y31.00 Z9.91 E17.800 F2000
G1 X28.00 Y31.00 Z9.62 E17.900 F2000
G1 X29.00 Y31.00 Z9.31 E18.000 F2000
; Non-Planar Pass 10
G1 X10.00 Y33.00 Z9.50 E18.100 F2000
G1 X11.00 Y33.00 Z9.81 E18.200 F2000
G1 X12.00 Y33.00 Z10.12 E18.300 F2000
G1 X13.00 Y33.00 Z10.41 E18.400 F2000
G1 X14.00 Y33.00 Z10.68 E18.500 F2000
G1 X15.00 Y33.00 Z10.91 E18.600 F2000
G1 X16.00 Y33.00 Z11.12 E18.700 F2000
G1 X17.00 Y33.00 Z11.28 E18.800 F2000
G1 X18.00 Y33.00 Z11.40 E18.900 F2000
G1 X19.00 Y33.00 Z11.48 E19.000 F2000
G1 X20.00 Y33.00 Z11.50 E19.100 F2000
G1 X21.00 Y33.00 Z11.48 E19.200 F2000
G1 X22.00 Y33.00 Z11.40 E19.300 F2000
G1 X23.00 Y33.00 Z11.28 E19.400 F2000
G1 X24.00 Y33.00 Z11.12 E19.500 F2000
G1 X25.00 Y33.00 Z10.91 E19.600 F2000
G1 X26.00 Y33.00 Z10.68 E19.700 F2000
G1 X27.00 Y33.00 Z10.41 E19.800 F2000
G1 X28.00 Y33.00 Z10.12 E19.900 F2000
G1 X29.00 Y33.00 Z9.81 E20.000 F2000
M104 S0 ; Turn off extruder
M140 S0 ; Turn off bed
G28 X0 Y0 ; Home X/Y
M84 ; Disable motors
